/* XPM */
static char *eticon[] = {
/* columns rows colors chars-per-pixel */
"171 153 256 2",
"   c #030202",
".  c #0B0403",
"X  c #0D0806",
"o  c #0C090A",
"O  c #090608",
"+  c #110605",
"@  c #130906",
"#  c #150A08",
"$  c #190906",
"%  c #1A0C09",
"&  c #160607",
"*  c #1B110D",
"=  c #15120A",
"-  c #1D1210",
";  c #161616",
":  c #110E12",
">  c #220906",
",  c #220D0A",
"<  c #2A0D0B",
"1  c #240806",
"2  c #240E10",
"3  c #23100D",
"4  c #2B100D",
"5  c #291B0D",
"6  c #231311",
"7  c #2B1312",
"8  c #291918",
"9  c #310E0C",
"0  c #32110D",
"q  c #3A140E",
"w  c #321413",
"e  c #341619",
"r  c #331816",
"t  c #341A1A",
"y  c #3A1512",
"u  c #3A1915",
"i  c #3B1B1B",
"p  c #391619",
"a  c #310F10",
"s  c #3C1D21",
"d  c #341B21",
"f  c #271E22",
"g  c #272419",
"h  c #38221C",
"j  c #352B12",
"k  c #3C2222",
"l  c #382526",
"z  c #2E312E",
"x  c #192027",
"c  c #2D3744",
"v  c #344336",
"b  c #34464E",
"n  c #32526B",
"m  c #431A13",
"M  c #421C1C",
"N  c #491C15",
"B  c #4B1B14",
"V  c #431E22",
"C  c #48211B",
"Z  c #5A251A",
"A  c #562419",
"S  c #443919",
"D  c #432323",
"F  c #442A2A",
"G  c #4B2B2C",
"H  c #472527",
"J  c #4B2B31",
"K  c #4C3132",
"L  c #473734",
"P  c #552A28",
"I  c #522D32",
"U  c #533334",
"Y  c #543A3A",
"T  c #5B353B",
"R  c #5C3B3C",
"E  c #583536",
"W  c #4E352C",
"Q  c #672B1C",
"!  c #68351C",
"~  c #652D23",
"^  c #6B3124",
"/  c #64393A",
"(  c #743427",
")  c #763A33",
"_  c #5C3C41",
"`  c #453845",
"'  c #643C43",
"]  c #514839",
"[  c #71453A",
"{  c #6B581E",
"}  c #5C4142",
"|  c #574347",
" . c #50534E",
".. c #506B6F",
"X. c #634344",
"o. c #644A4A",
"O. c #6B4B4B",
"+. c #694546",
"@. c #6C5252",
"#. c #675955",
"$. c #724B4C",
"%. c #714548",
"&. c #764D52",
"*. c #735353",
"=. c #7A5B5C",
"-. c #785758",
";. c #6C504F",
":. c #765B63",
">. c #716657",
",. c #7D6262",
"<. c #796669",
"1. c #6F7372",
"2. c #546061",
"3. c #5F7588",
"4. c #3C6B88",
"5. c #7A8977",
"6. c #758C8F",
"7. c #6C95A6",
"8. c #825A5C",
"9. c #844C45",
"0. c #835C62",
"q. c #836364",
"w. c #846A6B",
"e. c #8A6B6C",
"r. c #886468",
"t. c #8A6C71",
"y. c #8C7273",
"u. c #8C7578",
"i. c #92696D",
"p. c #946C73",
"a. c #927374",
"s. c #947479",
"d. c #947A7B",
"f. c #9A7A7C",
"g. c #9A7479",
"h. c #89736C",
"j. c #A3787A",
"k. c #856654",
"l. c #80413A",
"z. c #9C7C82",
"x. c #967C80",
"c. c #897483",
"v. c #A37D83",
"b. c #918875",
"n. c #D59758",
"m. c #D6995B",
"M. c #D89A5C",
"N. c #D99D61",
"B. c #D69C61",
"V. c #DAA065",
"C. c #DBA36B",
"Z. c #DCA670",
"A. c #DDA974",
"S. c #DEAC7A",
"D. c #DFB07E",
"F. c #E2A66A",
"G. c #E1AA74",
"H. c #E1AD7B",
"J. c #E1A871",
"K. c #E2B07D",
"L. c #E8B179",
"P. c #9B8283",
"I. c #9B8688",
"U. c #8B9191",
"Y. c #96A9A9",
"T. c #A28285",
"R. c #A3848A",
"E. c #A38A8C",
"W. c #AB8A8C",
"Q. c #A98489",
"!. c #AB8C91",
"~. c #A58B91",
"^. c #A59192",
"/. c #AB9294",
"(. c #AC9A9A",
"). c #AC9599",
"_. c #B39B9C",
"`. c #B59598",
"'. c #B28D8D",
"]. c #B79DA1",
"[. c #AC9CA1",
"{. c #B4A2A3",
"}. c #BAA3A5",
"|. c #BCABAB",
" X c #B9A6A9",
".X c #BCB3B3",
"XX c #B2A8AB",
"oX c #A2A09E",
"OX c #A7B5C8",
"+X c #A6CED8",
"@X c #C29997",
"#X c #DFB080",
"$X c #C9A49D",
"%X c #C2ABAD",
"&X c #C7A7A8",
"*X c #C2ADB1",
"=X c #C3B3B4",
"-X c #C5B9BA",
";X c #CABBBC",
":X c #CAB4B6",
">X c #CDB7B5",
",X c #E1B283",
"<X c #E3B689",
"1X c #E4B88D",
"2X c #E9B987",
"3X c #E5BB92",
"4X c #E8BD95",
"5X c #C09EA1",
"6X c #CDBEC0",
"7X c #E6C09A",
"8X c #E9C29C",
"9X c #EBC095",
"0X c #E9C5A2",
"qX c #ECCBAB",
"wX c #EAC7A4",
"eX c #EECEB1",
"rX c #EED0B4",
"tX c #EED4BB",
"yX c #F0D4BB",
"uX c #F0D1B5",
"iX c #F0CEAB",
"pX c #CAC3BB",
"aX c #CDC2C2",
"sX c #C9C9C8",
"dX c #D1C4C5",
"fX c #D4CBCB",
"gX c #D7C9CA",
"hX c #DBD3D3",
"jX c #DCD6D6",
"kX c #D4D0D1",
"lX c #E2DCDC",
"zX c #E0D5D7",
"xX c #F2DBC6",
"cX c #E5DFCF",
"vX c #E4DFE0",
"bX c #F3E0CE",
"nX c #F4E4D4",
"mX c #F6E9DB",
"MX c #F7E8DB",
"NX c #E9E2D7",
"BX c #E5E1E1",
"VX c #E9E4E5",
"CX c #EDEAEA",
"ZX c #E8E7E9",
"AX c #F8EDE2",
"SX c #F1EDEB",
"DX c #FAF2EB",
"FX c #F9F0E6",
"GX c #F4F2F2",
"HX c #FBF6F1",
"JX c #FCF9F5",
"KX c #FEFDFD",
"LX c #F8F7F8",
"PX c #F2EFF0",
"IX c #D4E4E8",
"UX c #BED1B4",
/* pixels */
"                    . .   . . . . . . . . . X . . + + . + X + @ X + @ @ @ @ @ @ $ = % % % 3 % % % % $ * $ * @ @ @ @ * * * * - * * @ @ # # # z g o # - * = @ ; b z < 0 0 m A Z ! Z m 0 < < 2 < 7 7 7 e i V D P P / R %.%.%.+.-.$.%.$.9.-.9.8.8.8.8.9.8.8.i.r.0.r.r.r.r.r.r.r.r.0.r.r.i.i.p.p.p.p.i.i.0.0.p.*X@Xr.&.&.&.0.0.&.%.&.&.%.&.&.%.' ' ' ' ' ' ",
"                  .     . . . . . . . . X + . # * + X . + + @ + @ @ @ @ @ @ @ = = $ % % * @ $ = # % @ * @ # * @ @ $ @ @ * * * * * * = # @ : g g @ X @ = * * 8 1. .1 0 q N / [ Z m 0 < , < 7 e a e s l i V H G P I / / $.%.[ [ %.$.&.=.k.8.8.8.8.8.8.8.r.i.i.i.i.i.i.i.r.i.i.i.r.i.i.p.i.p.p.c.p.p.i.i.i.0.0.e.r.0.0.0.0.0.&.0.&.&.&.%.%.%.%.) ' ' ) ' ",
"                  . = X     . . . . . X + . + + # X X @ X @ X + @ @ + @ @ @ = $ $ @ % * $ * * @ $ % # # @ $ @ @ @ * @ @ @ @ $ * - - * * # # @ @ @ X @ @ # * 3 8 7 9 q m W ^.k.m a < , < 4 7 7 r e 2.6.H D H G G E / X.O.$.$.%.%.&.9.8.8.8.0.k.q.8.0.i.r.p.p.g.i.p.p.p.p.g.p.p.i.p.p.p.z.z.z.z.z.z.p.z.p.p.p.i.r.0.0.0.0.0.0.&.&.&.&.&.&.%.l.' ) ' T ' ",
"O                 X g - . . . . . . . . . X O . X + + + @ + X @ X @ @ @ @ @ % * * * $ $ * $ $ * # @ $ # # = @ $ $ = @ + @ @ @ @ # = * * - * # + @ @ @ + # % 4 4 5 u q A ! k.[ 4 < , , < < 7 e 7 e  .1.P H G G U E R X.$.%.$.&.$.*.&.8.r.r.r.r.r.r.i.i.i.a.g.g.p.g.p.p.p.g.p.g.p.p.p.p.z.z.z.v.z.z.z.z.p.g.g.g.p.i.p.i.0.0.&.0.&.0.&.&.&.&.%.' ' ) T ' ",
"                . . X +   . . . . . . . + X + X + X @ + X + @ @ @ @ @ @ + # * * @ % $ @ * $ @ # @ % $ @ @ # @ # % # @ # @ @ @ @ # @ # * * - * : @ + @ @ $ > > < q u A Z ! A q < , , , 2 < a r e i h F C H G I E R ' +.$.$.$.$.$.&.8.8.k.i.i.i.i.p.p.p.g.g.g.f.g.~.XX^.f.g.f.g.g.g.z.j.v.v.f.z.v.z.z.z.v.z.v.z.g.p.p.p.0.0.0.0.&.0.&.&.&.9.&.%.%.' ' ' ",
"                    .   . . . . . X . . X + . O X + X X + X + X + @ @ @ @ @ @ $ @ # # = = @ % % # @ $ @ % # = @ @ # # # @ @ @ @ # @ @ = # = * * = * @ @ > > > < q C Z ^ Q m 4 > > > 1 < 4 w e e i k C H H I U E R X.+.$.&.&.-.-.-.8.8.q.i.v.'.j.a.g.f.f.f.v.v.f.[.aXXXf.g.g.f.j.g.v.v.v.R.v.z.v.z.v.v.v.v.v.z.z.v.p.p.i.i.0.0.0.0.0.0.&.0.0.%.%.' %.' ",
"                      . . . . . . . . X . + + + @ @ @ X @ X @ @ @ + @ @ @ @ @ # % % = % $ % @ @ * @ = $ @ = % % * # @ @ $ @ @ @ X # # @ @ @ = * * * * 3 > > < 0 q B Q ( A u 3 > , , < < 7 a e t h k H H G I E R / X.%.$.$.9.8.8.k.8.0.q.i.b.'.j.j.j.v.v.v.R.W.T.Q.!.'.j.b.j.v.v.v.v.v.W.!.Q.W.Q.v.v.~.v.!.v.z.v.v.v.v.p.i.i.i.i.0.0.&.&.0.i.l.%.l.' ' ",
"                x b @   . . X . . X . @ # : : ; @ X @ X + + @ X @ @ = @ @ @ # * @ # @ $ $ = * % * @ $ $ @ @ x 2.v # @ @ @ @ = @ @ @ @ @ @ @ @ @ = * = < 4 < < q m A Q A u 7 4 3 , 1 2 7 7 7 e t i k H F G W E R ] [ %.[ $.*.=.k.k.r.r.i.i.f.j.b.E.).W.v.~.~.~.W.Q.'.Q.'.b.j.v.b.v.v.W.!.!.!.!.W.v.~.v.!.v.v.v.v.Q.j.v.j.p.i.i.i.i.0.0.0.&.&.&.&.%.%.%.",
"                c 7.5   . . X . O O O : c n 4.n x # o @ O + @ @ @ X @ @ @ # % # @ % = @ @ * * $ $ % # % # % * g g @ # # @ @ @ @ @ @ @ @ @ @ + X # @ , 4 4 5 u m C Q Q m < 1 4 4 7 4 < 7 7 7 t t k k F G K U R R } X.+.O.O.&.=.8.k.i.e.i.i.g.v.T.-XIX].!.!.!.!.!.'.W.W.W.T.b.T.W.!.!.!.!.!.!.`.v.[.v.`.v.v.!.`.!.v.v.!.v.v.v.v.i.p.0.0.0.0.&.0.l.%.%.&.",
"                ; z = . . . . . O O O x 4.7.+X7.b # + # # @ X @ @ @ @ @ @ @ @ # # $ $ $ = @ @ * = @ = @ $ @ @ @ @ @ # # @ @ @ @ @ @ @ @ @ @ @ @ + @ > > 4 0 m C Q ^ A 0 1 > , 4 7 r 7 7 r r t k k F F G K U R R X.X.O.;.*.@.=.8.i.h.i.h.p.g.b.Q..XjX].!.!.!./.'.^.'.'.E.'.'.W.!.`.`.`.!.`.].].`.[.`.]. X!.`.].`.].!.v.`.!.v.v.c.i.p.0.0.0.0.0.l.&.0.i.",
"            .   .       . . . . O O O x 7.+XLXIX..: o @ @ + @ @ # @ @ @ @ = $ @ @ * = $ $ @ # @ # % $ @ @ * @ @ # @ # + @ @ @ @ @ = + @ @ X @ @ @ $ > > > 0 m A ^ ! N 9 1 > , > 4 7 t t t t i k k F F K U Y } } X.o.O.;.@.-.=.q.e.h.a.g.g.j.T.Q.).|.|.XX_.!.`.`.`._.`./.W.'./.).`.`.`.].`.].%X].v.].5X].].].].].`.`.5X`.'.v.v.v.p.p.p.i.i.0.9.i.0.i.p.",
"              . .   . . . . . . O O : x 4.+XIX+X..o o o @ X @ @ # @ @ @ @ # @ % = @ $ @ @ $ $ % @ # # @ @ @ $ @ @ @ # @ @ @ @ @ @ + @ @ @ @ @ + + > > > < q C Z ^ A u 5 4 > > > < 4 7 t h h l k F J K K Y Y _ } o.O.;.*.-.-.=.q.e.i.a.f.f.f.b.Q.[.IXzX6X}.).`._._._._.`.)./.`.`.].].].].].].].].*X].%X5X].5X5X5X5X5X`.`.'.v.'.Q.p.p.p.p.p.p.j.i.p.p.i.",
"                  . . . . . . . . + + o x n ..4.b # @ @ X @ @ X @ @ # # @ # # % @ $ @ = = $ @ @ $ @ @ @ $ @ = $ @ @ @ $ @ @ @ @ @ @ + X @ @ @ @ $ > 1 < 0 q B Q Q m 0 4 4 6 7 4 < 6 7 r h k l F F F L Y _ _ X.X.o.;.@.-.-.,.,.q.w.y.d.f.b.T.Q.E./.pXpX_._._._.&X}.{._._._._._.].].]. X].].].].].*X*X%X5X X5X5X5X5X5X5X!.'.v.`.'.v.j.p.v.j.j.j.j.p.i.i.",
"            . .   .   .   . . . + O O + # # : ; ; @ # X @ @ @ @ @ @ @ # % @ @ @ $ $ * $ @ * $ @ = @ @ @ @ @ @ @ $ @ @ @ @ @ @ + @ @ @ @ @ + X + > 1 1 < q m Z ! B 9 1 1 4 4 4 7 7 7 7 r t k F F K K _  ._ _ | o.O.@.@.=.,.,.<.w.h.s.f.b.P.T.T.W./.'.`._._._._.}.}.}.}.{.].].].}.].].%X X%X].%X].%X].5X%X%X%X&X&X5X5X5X5X`.`.Q.v.v.v.v.v.'.j.'.j.j.j.p.",
"                . .   . . . . . . X + + O + o + O o + @ @ X @ @ @ @ # # @ @ $ = $ $ @ $ # $ @ % $ @ @ @ * @ @ @ # @ @ @ @ @ @ # @ X + @ + @ + @ > > < 9 m B Q Q m 9 1 > % , 4 7 r t t t i k l J K ` Y..Xo.X.o.@.@.-.>.,.,.w.e.h.y.d.z.P.b.W.E.^./._._._.].].}.}.|.|.|.}. X X X X X|.|.|.%X X%X5X X].*X%X*X%X%X&X*X&X5X5X@X'.Q.Q.Q.Q.Q.@X@X@X'.j.j.i.i.",
"              . . . . . . . . . . . + O + + O + + o X @ @ + @ @ @ @ @ # * # @ @ % = @ $ # # $ @ # @ * @ @ @ @ @ @ @ @ # @ @ @ = @ @ @ + + + + $ > > 1 9 m Z Q B q < $ > , , , 6 r t h k k k F F K | U.-X#.| ;.*.w.w.0.q.w.e.h.a.d.f.P.I.E.^.^.^._._.{.}. X X%X*X*X*X*X.X|.|.*X*X*X:X=X:X*X*X X%X*X*X*X*X%X%X*X*X:X&X&X5X5X`.@X'.Q.Q.Q.5X@X@X'.j.j.j.p.",
"        = ;   .   . . . . . . . . . + . X . + X + + X @ X @ @ @ @ @ @ @ = $ # % @ g z = $ = # @ = @ @ @ @ @ @ @ @ @ # @ @ @ @ @ + @ @ @ + + @ $ 1 > 0 q m Z Q B < 1 > > , , < < 7 t k k F F K K K Y | -.;.;.;.-.q.h.q.r.e.a.d.f.f.P.P.E.^./.(.(._.{.}.|.|.*X*X=X:X=X=X:X=X=X-X-X:X;X;X;X6X6X*X%X:X:X&X:X&X&X:X:X&X>X&X&X&X5X$X&X5X@X@X@X@X'.Q.Q.v.j.p.",
"        v 2.. .   . . . . . + . . + . + + X + + X @ @ + + @ @ @ @ + @ @ # # @ $ $ g b * @ @ $ # @ # $ = $ @ @ + @ # + @ @ @ # @ @ + + X @ X @ 1 1 < 0 q B Q Z m 1 > > > , , < 7 7 7 t k l | 6.U.o.Y } | ;.@.#.=.k.q.r.e.i.a.f.v.T.I.E.E./.(.(.{.{.XX|.=X=X-X>X-X;X;XaXpX;X;X;XpX;X;X6X;X6X6X6X6X:X:X:X&X:X:X>X>X>X>X&X&X&X$X&X&X@XQ.@X@X@X'.@Xj.v.j.p.",
"        = g . . @ = .   . . . . . . X . + X + X @ @ @ @ @ @ @ @ # # # = @ $ @ @ $ @ $ $ $ # $ @ $ # @ $ = @ * * * % # # @ @ # @ @ + @ @ + @ $ > > < 0 m Z Q A 0 z 3.| > , , < 7 r t i h k | sXIX1.X.} o.o.@.-.,.w.w.e.p.a.d.v.T.T.E.E./.).(.XX-X.X.X.X=X-X;XpXpXaXdXaXdXaXaXdXdXdXgX6XaX6X6X6X6X6X6X6X:X:X:X>X>X>X>X:X&X&X5X$X$X@X'.@X5X@X@XQ.j.j.g.j.",
"              . X X . . . . . . . X . + X X @ X X @ X @ @ + X @ @ # # @ @ $ = $ = $ @ = * @ @ @ @ # @ $ @ @ * * * * - * : = # # @ X @ @ @ @ $ 1 1 < q B Z ! B 9 3.VXU.> < 2 7 7 r i h h F F #.#.o.X.| ;.@.@.=.q.e.i.a.a.f.b.b.I.W.^./.(.(.{..XIXZX.X=X-X;XaXaXaXdXfXfXfXkXfXgXgXfXgXgXgX6XzX6X6XgXgX6X6X:X6X>X:X>X&X&X&X&X&X$X$X5X5X5X@X@X@XQ.Q.v.v.v.",
"            .   . . .   . . . . + X X . + + @ @ @ X X @ @ @ @ @ @ $ # % @ = # % $ - b z % % * # $ @ @ # @ = @ $ * = * * ; - - = * = # @ + @ 1 1 1 9 q B Q Q q < l | k , < 4 7 r r h F W G F K K ] } <.oXh.-.,.<.e.a.d.f.b.v.R.W.^./._._.{.}.|.pX6X-XpXpXaXdXfXfXfXkXhXhXkXhXhXhXhXhXhXhXgXhX6XzXgXgX6X6X:X:XdX6X:X&X&X&X:X&X&X&X5X5X5X5X@XQ.Q.Q.v.v.Q.",
"          . . .   . . . . . . . . X + . + + + + @ @ @ @ @ X + @ @ @ @ @ @ $ # @ @ x 7.U.% # @ # @ # # = = = @ @ g - @ @ # # % * * * * * = % < > < 0 m A Q Z 0 > > 1 , < < 7 7 r t k F F F K K Y Y } 1.fXb.-.,.<.e.y.f.f.Q.b.E.W./._._.{.|.|.*X=X-X6XaXdXfXfXkXkXhXhXhXhXzXjXjXjXjXjXzXzXzXhXhXhXgXgXgX6XdX:X6X:X>X:X&X&X&X>X>X&X&X5X5X:X&X@XQ.Q.v.Q.Q.",
"        .     . . . . . . . + . . . . X X @ . @ X @ X @ @ X @ @ @ @ @ @ @ % = $ $ *  .2.# % @ # o # % z  .g + = - = @ @ # @ @ @ @ # = * = , < 4 5 y C Z Q N 9 , > > , , 4 7 7 t t h k F G K K Y ] } ;.h.,.>.<.w.a.g.f.P.W.W./.(._._.{. X|.=X=X-X6XsXfXfXkXhXhXhXlXjXlXlXlXlXlXvXvXlXvXlXzXzXzXzXgXgXgXgXdXdXdXdX6X>X:X&X&X&X&XLXVX5X5X5X:X5XQ.Q.`.Q.'.",
"            . .     . . . X . . + X + @ @ @ * @ @ @ @ @ @ @ @ @ @ @ = # @ $ $ @ $ = - 5 # # @ # # # # g z - @ $ @ @ @ @ @ @ @ @ @ @ @ @ $ % 4 4 q u A ~ ^ N 7 , > , < < 4 7 7 r i k l F K K Y Y } | o.;.-.=.q.e.y.f.v.b.b.^./.(.(._. X%X=X=XpXpXaXfXfXkXhXjXjXlXlXlXvXVXBXVXVXVXVXvXvXvXvXvXlXzXzXzXgXgXgXgXeXgX>X>X:X&XLXLXMXAXPXPX5X5X5X@X'.Q.Q.Q.v.",
"          .   . . . . . . . . . @ X - 8 @ @ * # @ X + + # @ @ @ # @ $ # # @ @ * # % @ $ @ # % @ # # $ @ @ @ @ @ @ @ * # @ @ # @ @ @ @ @ @ > > < 0 m A ! ~ m 7 7 4 < 4 < 7 7 r t i k F F K K Y ] X.o.o.@.-.>.<.w.y.f.P.E.E.).|.|.{. X|.|.=X;XpXaXdXfXjXjXjXlXvXBXVXVXVXCXZXCXZXCXCXVXVXvXVXvXvXzXzXzXgXgXgXgXgXdX6XLXPXHXFXbXeXxXPXGX`.`.v.v.].v.v.v.v.",
"              .   . . . . . . + X o # # @ @ @ @ @ @ o @ @ @ # # # $ = % % % % % % = $ = * @ # @ # # @ @ @ @ @ $ @ @ @ @ # @ @ @ @ o @ @ @ > > < 0 q Z ! Z y 4 < 6 7 7 7 8 t t i k k F F K K Y } } o.@.#.:.,.<.e.a.d.P.E.|.|.|.|. X|..X:X-X;XaXsXkXkXjXjXlXBXBXZXCXZXCXCXGXCXSXCXCXCXCXCXCXVXvXvXzXzXzXzXzXzXPXLXLXGXbXbXxXeXeXqXyXbXv.5X].].v.].].v.v.",
"          . . . . . . . . + + + @ @ + + @ @ + @ @ @ + @ @ # # @ = @ # # $ % % $ * @ $ @ @ % # # # # # # @ # @ $ @ @ # # # @ @ # @ @ @ @ $ > > < 0 m Z Q B a 1 1 , 4 r 7 t k k D F F F K K Y Y } o.o.@.-.:.,.w.t.s.f.T.E..X.X_.{. X|.=X-XpXaXdXfXkXjXjXlXBXZXZXCXSXGXGXGXGXGXPXSXPXPXPXCXCXVXVXVXzXzXzXLXLXLXPXMXMXbXxXxXxXuXeXuXeXeXxX5X%Xv.[.v.v.v.5X",
"        .   .     . . . . + + + # + # + # + + @ @ # # # # @ # # @ # % $ # * % = % = * % @ * % # # % $ # @ # # = * * % % * # # @ @ @ X @ $ > < < q m Q Q m a < 1 , < 7 7 7 t i D G F K Y Y R } o.o.o.@.=.,.q.w.y.g.b.I.E./.(._.}.|.=X:X;XaXfXfXkXhXjXBXBXZXCXCXPXPXPXGXLXGXGXLXLXHXPXPXPXCXCXVXVXPXPXPXGXFXAXMXbXxXxXnXMXxXuXuXxXxXyXuXv.v.[.v.v.v.5Xv.",
"            . .   . . . . + + + @ % # & + + @ # # # & # # # # $ % % $ @ $ @ * @ $ % $ * # * % % $ $ $ @ @ @ @ $ % , % , % # # & @ @ @ @ $ > 1 0 q B Z Q m 9 1 2 < < 7 < w e i h D F K U Y } | o.@.#.*.>.,.w.e.y.d.P.T.W./.(.{.}.|.=X;XaXsXfXkXcXjXlXBXZXCXSXPXGXGXLXLXLXLXKXLXLXLXLXLXPXPXKXKXKXLXHXFXAXMXnXnXnXMXnXMXbXxXyXyXxXxXeX8Xv.v.`.v.[.5Xv.v.",
"          .   . . . . . . . . . + + # # @ @ + # # # $ # $ % % % % % $ $ % * $ $ $ $ $ * % % # % * * # @ $ @ $ @ $ % , % % # # # @ @ @ X $ , 1 < q B Q Q m 1 1 % , < < 7 r e i k D F F K Y Y } o.@.-.=.,.e.h.h.s.d.P.I././._.}.|.*X.X;XaXsXkXhXjXlXBXZXCXCXGXGXLXLXKXKXKXKXKXKXKXLXLXKXJXKXJXHXHXHXFXAXAXAXMXnXMXMXMXbXxXyXrXeXrXeXeX0XxX).v.v.v.5X5X`.",
"        .     .   . . . . . . + + . . + @ + # + & # $ $ $ % , , , % % % @ * $ @ % % % % % % % $ % # # # # # @ @ $ # % , % , % $ @ @ @ @ > > < 9 m B ! Z q z c l a < 7 w r e i k l F F K U R _ X.o.*.=.,.w.e.u.d.T.T.W./.`.{.{.|.=X.XpXaXfXkXjXlXBXZXCXCXGXLXLXLXKXKXKXKXKXKXKXKXKXKXKXKXJXJXHXHXDXFXFXHXFXAXnXnXnXnXxXxXxXrXeXrXeXeX0XxXv.v.[.].5X5Xv.",
"          .   . . . . . . . + . . + . + + @ + # + $ $ % % > , 3 , 3 % % $ $ * % % % % % % % % @ * % % @ $ # % % # % % % % % 7 % @ @ @ @ 1 1 < 9 m B Q Z q 6.IXoXk < w w r e i k F F G U Y ] } o.;.@.-.,.<.h.a.d.b.E.^._._.{.|.*X=X-X6XaXfXkXjXlXBXZXCXPXGXLXLXKXKXKXKXKXKXKXKXKXKXKXKXKXLXLXLXHXHXHXFXHXLXAXnXnXnXbXbXbXxXyXrXxXyXeXyXPXv.[.v.].v.v.v.",
"          . .   . . . . . . . . + . + X + + + # # # $ % % % , , > 3 , % % 3 % % % % % , % % % $ = % % $ $ # # # $ # % % % % $ % @ @ @ @ > 1 1 0 m Z Q A y 2..Xh.h 7 w w r i i k D F K K Y _ } X.o.#.=.<.q.w.y.d.v.E.!.).}.}.|.*X-X;XdXfXfXhXlXvXVXCXSXGXLXJXKXKXKXKXKXKXKXKXKXKXKXKXKXKXKXJXKXJXHXDXDXHXFXAXmXMXnXbXnXbXxXxXxXrXuXzX].v.v.[.v.].v.z.z.",
"        .     .   . . . . . . . . . . + + X @ @ $ $ % % % % % , , , , , % % % % % % % , 5 $ % $ $ $ % % $ # $ # # # % % % % > # @ @ @ $ > 1 < 0 m Z Q B 0 4 g 7 < < < r r i i k F F K Y Y } X.o.;.*.-.,.w.w.a.d.b.R.^.).{.}.|.=X-XpXaXfXhXjXlXBXCXCXGXGXLXKXKXKXKXKXKXKXKXKXKXKXKXKXKXKXKXJXJXJXJXHXDXFXAXAXmXmXMXbXbXbXuXxXxX].`.[.[.v.[.v.].v.v.z.z.",
"        .   .   . . . . . . . . . X . X X + @ $ & $ $ $ $ % % $ % % , , % 3 % , 3 , % , 3 , % % % , , = # % # # # # $ # % % # % = $ @ $ 1 < < 0 m A Q B 0 > 1 > < < 4 7 r e h k D F K U Y R X.o.;.@.:.,.w.h.u.d.P.I.W.(.{.}.*X=X:XaXdXgXhXjXlXVXCXCXGXKXKXKXKXKXKXKXKXKXKXKXKXKXKXKXKXKXKXKXJXJXHXHXHXFXAXAXAXMXMXbXxXxX*X*X&X].].`.v.].v.].[.v.v.v.c.",
"            . .   . .   . . . . . . + + . + @ @ # # # & $ $ , % % % 3 % , % , * 3 , 5 , 4 4 , % % % $ * % % % # # # $ # # # % % $ % @ $ < 1 9 0 m Z ! B 9 > $ > , < 4 4 r t i D F G K K Y } o.o.;.@.-.<.w.y.u.d.P.I.^.(._.}.|.=X-XpXdXkXhXlXvXVXKXKXKXKXKXKXKXKXKXKXKXKXKXKXKXKXKXKXKXKXKXKXKXJXHXHXHXDXAXAXmXnXbXdX6X6X:X*X*X%X].[.[.[.].v.[.v.z.c.p.",
"          .   .   . . . . . . + X + . X X + @ $ # % % $ $ # = $ , % * % 3 % 3 , 3 > 3 4 3 4 3 % , % % - ] l > % $ # % % # # # % $ * $ $ 1 < 9 0 m Z ! B 9 1 $ 1 > , < 7 r t i k F F K Y Y } X.o.@.#.=.,.w.t.u.d.P.I.^.(.]. X|.=X-XaXfXfXhXKXKXKXKXKXKXKXKXKXKXKXKXKXKXKXKXKXKXKXKXKXKXKXKXKXJXJXHXHXDXFXAXmXzXhXgXgX6X6X6X*X%X X].].[.v.v.[.v.v.z.p.p.",
"        .   . . . . .   . . . . . + . + + + @ @ $ % % # # # @ @ $ , $ $ % % % % % % , 3 > , % , % , > 3 g 5 % % % # $ % $ $ $ $ @ $ $ % 1 1 9 0 m Z Q B 9 1 1 1 , , < 7 7 t h l D F K K R } o.o.@.#.=.,.q.h.u.d.P.I.^.).[.XX|.=X-XaXKXJXKXJXHXHXHXJXJXJXKXKXKXKXKXKXKXKXKXKXKXKXKXKXKXKXKXKXKXKXJXHXDXVXBXlXzXhXgXgX6X6X*X*X%X X].v.`.].].v.v.v.z.c.c.",
"      O X .     .     . . . . . . . . . X + @ @ $ $ # # & $ % g 5 3 = * % * $ % % % % 3 , 3 , * , % , % # # % % % % % % % % # % $ @ $ % 1 < 1 q m Z Q B 9 $ 1 > , < 4 7 r t h k F F K U Y } o.o.;.#.#.<.<.w.u.d.P.I.^.^.(. X XKXJXJXJXAXFXDXDXHXHXHXKXKXKXKXKXKXKXKXKXKXKXKXKXKXKXKXKXKXKXKXKXJXPXCXVXVXlXlXzXgXzX6X6X6X6X*X*X].].].[.v.v.v.v.z.z.z.z.",
"      ; ; X . .   z z @ . . . + . . + . + X + + & # $ $ # $ 8 #.] - $ $ $ $ = $ = , 3 % , , , , % % > , % $ % , , % , % , % % # @ $ % % 1 1 < q m Q Q B 9 1 $ 1 , < < 7 r t i k l F K K Y } X.o.@.*.=.,.w.h.u.d.I.I.^.).KXHXHXHXmXAXAXAXAXAXDXHXHXJXJXKXKXKXKXKXKXKXKXKXKXKXKXKXKXKXKXKXKXKXLXGXPXCXAXVXlXzXzXgX6X6X6X6X6X*X|. X]. X Xv.v.v.v.z.z.v.p.",
"        .   .   O 7.Y.; . X . . . . + + . + X + + # # # $ # % g g % # % = $ @ $ % % % , , , 3 , % , , , % % % % $ % 3 , , , % $ $ % % $ 1 < 9 0 m A ! B 9 1 $ 1 , , < 6 7 i h k F F K K Y } o.@.*.:.:.<.w.t.u.x.I.HXHXJXHXnXMXMXnXnXMXAXFXDXDXHXJXJXJXKXKXKXKXKXKXKXKXKXKXKXKXKXKXKXKXKXKXKXLXGXPXCXCXVXlXzXzXgXgXdX6X;X:X:X|. X].].[.v.v.v.z.z.z.z.c.",
"            . .   b  .@ .   . . . + X . . + X + + + @ @ # # $ $ $ % # % $ @ * @ % % % , , , , , , , , , , , % % % , , , % , , , % $ % % < 1 < q m Z Q B 9 > % % 1 , 4 7 t t k k F K Y Y } X.| ;.@.-.,.,.w.p.HXJXJXDXnXnXxXxXxXbXnXmXnXAXFXFXHXLXJXHXJXKXKXKXKXKXKXKXKXKXKXKXKXKXKXKXKXKXKXJXLXGXPXCXVXBXlXzXhXgXgXgX6X;X:X*X%X].*Xv.[.v.v.z.z.c.c.c.p.",
"        . . .     .   . . . . . . . . . X X + + @ + @ + # # # $ $ % % @ $ $ $ * % $ $ * 3 , , 5 , , , , % % % > , , , % 3 > , % % % % % > < < q C A ^ A q 4 3 4 7 7 7 t i h k F G K K Y } | o.;.#.-.>.DXDXHXDXbXxXxXeXyXxXxXnXnXmXnXnXmXAXAXDXHXHXHXJXJXKXKXKXKXKXKXKXKXKXKXKXKXKXKXKXKXKXLXGXSXCXCXVXvXlXhXkXfXgX6X6X>X=X%X X].[.v.[.v.z.g.z.c.c.t.c.",
"        .   .   .   . . . . . . . X + + . + X + X @ @ @ # $ $ $ # # @ = $ # # $ $ $ # * , , , % % , % , % % % % % % , % , 3 3 3 3 3 4 * 4 4 q q C Z ( Z q 3 4 4 4 r r r t h k l F K K Y _ } X.o.HXAXFXAXyXxXxXqXuXyXyXxXxXbXnXnXnXnXnXmXAXAXFXDXDXHXJXKXKXKXKXKXKXKXKXKXKXKXKXKXKXKXKXKXLXGXGXGXCXVXBXlXzXhXgXdX6X;X6X>X*X|.].(.v.[.v.v.s.g.c.t.t.r.0.",
"        .   . .   .   . . . . . . + . . X X X X + @ @ @ + # # @ % % # % % % $ # @ # # % $ , , % % % 6 f f - * * 3 3 6 6 7 6 3 6 5 6 6 3 4 5 w u N Z ( Z u < 7 < 3 7 7 r t t t k V J J I _ LXPXPXAXeXeXeX4XqX0XeXxXxXyXxXxXxXxXnXnXnXnXnXmXFXDXDXHXDXJXJXJXKXKXKXKXKXKXKXKXKXKXKXKXKXKXLXLXLXGXCXCXVXBXzXhXhXfX6X6X6X:X*X X].]././.^.W.T.s.p.t.e.0.0.c.",
"              . . . . . . . . . . . + X O @ X @ X + @ X @ @ # # $ # % # @ * = $ % % % * * * - 3 6 8 c 7.6. .8 3 5 3 6 6 6 6 6 6 6 3 * 3 0 t k u m A ^ Z y < $ % > , 3 t 8 w t h V H SXAXAXMXeXeXwX4X4X4XiXuXqXiXeXeXrXrXyXxXxXnXnXnXmXmXmXAXFXDXDXDXHXSXPXGXLXLXKXKXKXKXKXKXKXKXKXKXKXLXGXPXCXCXVXvXlXjXhXgXgXaX6X>X*X|.&X_.`./.!././.b.a.t.e.w.c.0.:.",
"          .   . . .   . . . . + . + X X z ..x = X + X + # @ @ @ # * 3 * - - - 6 - 3 * - - 6 - - 8 ; 2.IXIX1.8 6 6 6 6 6 3 7 7 6 3 6 * * 8  .6.F q B Q Q q < > > > > 8 ] t r h mXPXDXAX0X0X8X,X,X1XeXeX0XeXyXiX0XiXyXuXeXyXxXbXbXMXmXmXmXmXmXAXAXlXBXVXCXSXSXGXLXKXKXKXKXKXKXKXJXKXLXLXGXPXSXCXZXBXlXlXhXhXfXfX6X;X:X*X&X}.]./.E.).sXhX_.y.e.w.w.0.0.:.",
"        .   . . .   . . . . . . . . X X x b g # # # # * * : - - * * 6 6 - 5 - - - - 6 - - 6 - - - 8 z U.Y.2.g 3 * 3 3 * % % % , % % % % 4 L >.C q B Z Q m < > , 4 4 8 l DXHXHXmXqX0X4XJ.,X,X,X,X4XuXxXqXwX0X8XqXuXxXrXuXxXbXbXbXxXnXnXnXMXfXkXjXjXvXVXZXCXSXGXGXGXGXLXKXLXLXKXLXGXGXGXGXCXCXVXBXBXlXzXhXfXgXdX6X>X:X*X%X}._./.~.).fXcX`.t.w.0.0.:.0.:.",
"            O   . . . . X X o # o = = # * # - S j = - - # - = - * - * 6 - 6 * - - 6 - 3 - - 3 * 6 3 4 6 8 8 * % # % % $ % % % % % % > % < 1 1 < q B Z ^ N 5 < < a MXLXHXnX0X0X1XC.J.J.,X2X2X,X<X4XiXwX4X4X0XuXyXeXeXeXyXyXxXcXxXxXxX.X-XaXsXfXhXhXlXlXBXVXCXCXGXGXGXLXGXGXLXLXGXGXGXPXCXCXZXNXBXlXjXhXfXfXaXdXpX;X=X%X}.]._.).~.E.E.W.f.a.w.,.=.-.*.@.",
"      O . . X o o # o @ # # # : # # : = : # = g g # - = * * - - - * - - - - - - * * * * % % , % % * % % # * % $ $ % % % % % # % % % > % % < 0 0 y C Q ^ A u rXmXLXMXqX0X2XV.C.C.J.<X4X8X4X,X<X4XeXeX4X4X8XrXyXyXrXeXeXrXuXyXyX(. XXX.X-X-XaXsXkXhXhXlXlXBXVXZXCXCXSXSXGXCXGXGXGXCXCXCXCXZXBXBXZXBXkXgXfXaXdX;X;X:X=X|.}.].`.^.W.T.P.P.f.p.r.=.*.*.&.&.",
"O   O o X X @ o o o o o o o : # # # # # = : * # : * % = * # - # % # % % $ @ = $ $ % $ $ # % % % % % % % % % % % % % % % , % % % % 3 , 3 3 w 0 0 u C Z ! nXxXnXnXeX2XC.N.V.G.,XJ.#X8XeX4X#X#X<X0XeXiX0X4X8XyXrXqXeXqXeXeXI.^.^.oX[. X.X.X-XpXdXsXfXkXjXlXlXBXVXVXZXCXCXCXCXSXCXCXCXZXVXVXlXlXjXlXjXgXdXaX6X;X-X-X:X*X X}.].)./.E.P.z.f.d.y.r.=.&.;.O.o.",
"O O O O o o o # # o @ @ # # # # # : ; # # # # # @ # @ @ O + @ @ # # @ # = $ = $ $ = % $ * % * , % , % % @ % % % % % % % 4 4 3 6 4 7 6 6 6 4 7 4 0 q A Q uXHXnX<XM.M.J.G.J.,X,XG.J.1X2X#XJ.#X1XqX0X0XwX4X4X0XqX8X0Xs.x.b.I.I.^.(.[.XX|.|..X-XpXpXdXfXkXjXlXlXlXvXVXBXVXVXZXVXZXVXVXBXBXvXlXlXhXkXfXdXaXpX;X>X-X=X=X|. X].).)./.E.T.z.z.s.e.0.-.;.O.o.' ",
"O o   O o x c : & @ o @ + + X X + + X . @ X X + + X + @ @ @ X # @ @ @ @ $ @ $ $ % % % % % % , % , 3 3 * % $ * 3 3 3 6 5 5 4 6 7 7 3 , , $ > < < 1 q m Q yXKXiXM.V.J.J.G.#X,XG.H.,XJ.#XG.G.#X<X4X4X4X4X4X3X4X<.w.e.y.u.x.x.I.^.(.(.{. XXX|..X-X-X;XsXfXkXhXhXlXlXlXlXBXlXlXvXBXvXBXNXNXjXjXhXgXfXdX6X-X-X-XpXNXfX=X%X}._.).~.E.T.P.P.z.s.e.0.-.;.o.' o.",
"O O O O . b +Xz . . . . . . . . X . . + X X + . @ . + + X @ @ @ @ @ $ $ # # @ * % % % % * $ 3 * , , 3 3 3 6 6 3 6 6 6 3 4 3 3 , % 3 , > % , 1 < 9 q m Q MXMX2XM.N.C.N.V.H.1X,XH.,X,X4X8X2XG.,X,X,X<X<X&.#.=.,.,.w.w.y.u.P.I.E.^.(.(.oX{.|..X.X-XpXsXfXhXkXkXhXhXjXlXlXlXlXlXlXlXjXjXhXhXhXkXfXdXpXpX.X-X=XdXGXNX=X]._.`.).!.R.T.E.T.z.s.t.q.-.*.O.o.' ",
"          ; b ; .     . . . . . . . . + . X + . X + @ X @ @ @ @ @ @ @ = @ $ $ = $ = $ * % 3 6 7 3 6 6 6 6 6 5 6 4 % , % % % , , % , % % % % 1 1 < 0 m B DX0XF.J.F.m.N.F.V.H.,XF.,X8XeX4X,X#X#XJ.} | o.;.#.-.-.,.<.w.y.d.b.I.I.^.^.^.oX[.{.XX|..X.X-XsXkXfXfXfXkXhXhXhXhXhXjXzXhXjXhXhXgXfXfXaXdX;X;X=X.X.X=XgX>X}._./.!./.!.E.T.P.z.f.a.r.0.-.$.O.' _ ",
"                .   . .   . . . X . . . + + . + + X X @ @ @ @ @ @ @ @ @ @ @ @ $ * * * 3 3 6 6 6 6 5 3 3 3 , , % % % % % % % % , , % % % $ # > > 1 9 q A DX8XF.<X2XV.J.G.V.V.N.Z.<X8X4X#X#XP P _ _ } o.o.;.#.=.=.<.<.t.u.c.x.I.I.I.^.).(.(.XXXX|..X-X.XpX6XaXaXfXfXfXkXgXfXhXkXkXkXkXgXfXfX6XpX;X;X.X|.|.|. X$X{._.)./.~.W.~.I.z.x.s.a.e.r.0.-.*.&.' _ ",
"                . .   . . . . . . . . + + . + + + + + @ @ @ @ @ @ + @ @ * * * 6 - 6 5 - 8 6 - 3 3 % 3 % , % , > % , % % % % , , , , , % $ @ > , 1 0 q B JXiXF.2X2XF.G.,XZ.N.N.J.<X<Xl k F K K Y Y } } } o.@.#.=.,.w.w.u.y.d.x.x.I.I.^.).(.[.{.XX.X.X.X-X-XsX;XpXdXsXfXdXfXfXfXdXfXdXdXdXaX;XpX=X=X|.|.{.{.{.{._.)./.W.E.E.P.z.x.s.s.a.i.0.-.-.&.O.o.} ",
"              .   .   .   . . . . + . . . + . + . + X @ @ @ @ @ * * * * * * * 6 * 3 - = % % # % % , % , , % % % , % % % $ % $ % % % # $ $ @ $ > 1 < 0 m JXiXJ.H.F.N.Z.F.C.Z.Z.e r i h k F W L K Y Y } } o.;.#.=.,.<.w.y.u.y.d.b.I.E.I.^.^.).[.{.XX|..X.X.X.X.XaX;XpXaXaXaXaXaXpX;XaX;XpX-X=X:X|.|.|. X{._.(._.).^.^.)./.E.z.f.s.s.s.a.t.0.-.@.O.+._ / ",
"            .   . . .   . . O . . X . + . . . X X @ @ = = * * * - * * * * * * @ % % % % % % % % % , , , , % % , , % % % # $ % % $ $ $ $ $ # $ > 1 1 0 q HXiXnXyXN.V.N.M.N.V.a 7 7 i k D F l F F K Y Y } o.@.@.=.>.<.<.w.w.y.u.d.P.I.I.E.^.^.(.oX[.{.XXXX|..X.X.X-X=X-XpX;XpX-X-X-X-X-X=X=X|..X}.{.{.{.(.(.).^./.W.^..X.XP.z.s.a.t.t.a.t.0.=.$.+.' R R ",
"            . .     . . .   . . . . . . X + # # # = % = % * = = * @ @ @ @ @ $ * % % % # % % % % $ % % % , % % % % > % % % $ # $ # # # # @ & @ $ 1 > 0 JXHXAXHXAXeX,X,XJ.M.N.a a t i h h h k F F J L Y | | o.@.#.=.=.,.q.w.w.y.u.d.b.I.I.I.^.oX(.(.{.{.{.{.|..X.X.X=X=X=X:X=X:X.X.X.X|..X|.|. X X{.(.(.).^.E./.W.E.I. X{.z.z.x.s.t.t.t.r.:.-.&.+.R U I ",
"            .     .   .   . . . + + o = # : # = # : @ @ @ @ X + @ @ @ @ = $ % % % % % = $ % % % % % % % % % , % % > % % % % @ # # & # & @ @ + @ nXDXFXMXwX9XiXAXJX4X<X,XV.M.7 r 8 r r t i k l F K K Y } X.o.@.@.*.-.>.,.<.w.w.y.u.d.d.P.I.I.^.^.(.(.oXoX[.XX XXX|.|..X*X*X|..XsXsX|.XX}.XX X{._.[.^.^.^.E.E.W.P.f.f.x.f.z.x.z.p.p.t.r.0.=.&.&.' _ E K ",
"                  . . X X X # o # @ # # # # @ + @ @ X + + @ @ + @ @ @ @ $ @ # % % % % $ % % % % # # % % % % % , % % , % , % % % # # # # @ nXDXDXMX9X9X2XF.F.L.9XiX2XH.G.F.M.7 7 7 7 7 r t h D F K L Y _ | o.o.o.;.#.-.:.q.q.<.h.y.u.u.x.P.I.I.^.^.^.).^.(.(.{.{.{.{.{. X X}.{.-XpXXX{._.(.(.(.(.).^.~.~.I.I.P.f.d.s.s.s.p.p.t.i.t.r.r.<.-.&.+.o./ T K ",
"              . + X @ o @ @ # # # X X @ X . + . . . + X @ + @ X X @ @ @ @ $ $ % * $ % $ % % % % $ # # # $ % $ # $ $ % % % $ $ @ # @ nXAXAXMXiX8X2XN.N.N.F.F.L.F.F.2X,XH.G.N., , 4 7 7 r t h k F F K K ] } } } o.;.;.*.=.=.,.q.w.e.y.u.d.x.P.I.I.E.E.^.^.).^.(.(.(._._._.{._.{.{.{.(.(.).^.(./.).~.E.I.I.I.x.b.x.s.y.t.p.t.t.r.i.c.c.c.:.-.&.+.X._ _ R ",
"      O O O X @ + o o @ O X . . . . . . X X . + + X + + X + @ @ @ @ @ @ @ = $ % @ * 3 = % % % % % % # % % # # # $ @ @ $ $ $ @ AXHXHXMX4X9X<XV.M.N.M.M.M.M.L.L.L.G.F.H.<X,XN.> , , 4 7 r t k l F Y ] Y K Y Y _ } X.;.*.-.-.,.,.q.w.y.y.u.d.x.b.I.I.I.I.E.E.^.).).^.(.(.(.(.(.(.(.(.).^.^.^.E.^.E.E.I.z.x.I.z.oX[.x.t.w.r.r.0.0.3.OXkXXX0.*.O.X._ [ k.+.",
"O O O O O . X . X X X     . . . . . . . . + + . X + X + + + + + @ + @ @ # # # # @ * 3 $ % % = $ % % % # @ % @ # @ @ @ @ KXHXHXmXwX0X<XC.C.C.A.C.M.M.M.N.F.H.L.G.L.L.G.L.F.M.> , , < 7 7 h h k l ] ] W K K Y Y } X.o.;.*.-.=.=.q.q.e.h.a.u.u.d.b.x.x.I.I.I.E.^.E.^.E.^./.^.^.^./.^.^.^.E.I.I.E.E.P.P.x.I.oXoXOXkX^.t.w.q.,.8.=.t.XXZX-X<.&.+.' R O.k.[ ",
"o O               .     . . . . . . X + . . . X . . + + X X + X + @ @ @ # $ % % $ $ $ = = $ $ $ % * # # * @ # # = AXAXAXmX8X8X2XC.N.N.D.3X1X#XZ.M.M.M.Z.9X9XJ.L.9XL.2XG.V.M.> > , < 7 r t h k k F H F F K K Y R X.X.O.*.*.=.8.8.q.e.e.h.h.t.u.d.u.x.d.P.P.E.E.E.T.E.W.W.E.E.E.E.E.E.E.I.P.d.b.P.x.d.d.d.^.^.oXXXI.e.w.0.=.-.*.=.<.I.c.:.O.' T T E [ T ",
"                    o v 2.;   . . . . . X . . + + + + X + @ + @ @ @ @ @ # # % # % = % @ $ $ @ $ # % # # @ @ KXmXmXnX7X7X#XV.N.N.A.S.V.C.#X7XA.M.M.Z.Z.S.tXeXL.<X9XL.8X2XG.M.1 > , 7 7 r t t i k i k l F F K K Y R } +.O.$.-.8.8.k.r.r.w.w.t.y.t.y.u.u.u.d.P.P.b.T.T.Q.Q.b.T.I.T.I.T.I.P.f.d.d.d.d.u.a.y.e.w.w.w.w.w.w.q.=.-.$.$.&.@.&.O.+.' T I E E U ",
"                  . O ; v X . . . . . . . + . + . X X X + X @ @ + # @ @ # $ % # % $ $ $ = $ = @ x 3.Y.FXDXDXnX1X1X1XV.V.M.V.Z.S.A.A.V.M.V.Z.M.M.A.#X9X<X9X9X2XK.F.9XMX9XH.M.1 > 4 7 7 7 r 8 t t i k k l F F J Y Y R X.+.$.&.-.k.8.q.q.q.q.w.w.w.t.t.y.KXMXxXf.f.f.v.b.b.T.v.T.P.T.z.b.d.d.u.y.u.u.a.y.y.w.q.q.,.q.q.r.q.-.&.$.+.+.%.' _ / R T I P I G ",
"                  . . .   . . . . . . . + . . . + + X + X + @ + @ @ + @ $ $ % = $ % % # = = = = KXmXAXnX7X7X,XV.V.V.V.M.M.N.Z.K.C.M.M.M.M.V.M.V.,XqXiX1XV.C.H.F.2X2X2XL.F.M.< < 4 4 4 7 r 7 w r t t k k F F F K Y Y R X.+.&.9.0.8.8.8.,.,.q.HXHXDXJXAXHXFXmXs.a.d.a.f.f.f.f.j.b.f.d.d.a.a.y.e.t.y.i.w.w.q.0.,.=.,.,.0.8.&.O.$.%.' ' R R R R T I G I H ",
"                .   .   . . . . . . . . . . + X + X . X + X X + @ @ @ @ @ @ @ % % @ % # = AXAXFXnX1X1X,XV.V.M.V.C.M.M.N.V.C.C.V.N.M.V.Z.C.M.M.V.D.1X<XA.M.V.Z.8XuX9XL.G.F.V.4 4 , 3 4 7 4 4 7 7 r t t h k F F F K K Y R _ ' ' ' -.KXFXmXFXHXmXxXyXyXeXyXFXKXe.y.a.a.a.a.a.a.s.a.a.y.a.y.h.w.w.w.e.w.<.q.q.:.-.-.=.8.=.-.-.$.O.+.X.' / E / E I G G K J ",
"                .   . . .   . . . . . . . . + . + X + X + @ + @ @ @ @ @ @ @ $ = @ @ mXMXAXnX9X7X,XN.N.C.H.S.F.A.S.C.V.Z.A.C.C.V.C.V.V.C.C.M.V.Z.Z.V.M.+ KXiXV.9XqX1X2X2XL.F.w , 4 6 < , , < < 7 r r t h h F F F G K U E AXJXPXPXJXmXiX0XeXyXiX4X8X7X4X7XrXbXq.w.e.i.e.h.f.d.a.a.y.e.e.y.w.q.<.q.q.q.q.,.=.=.-.@.*.=.=.*.*.$.%.X./ / I U U G P I H I Y ",
"                . .       . . . . . . . + . . . X + . + X + X @ X @ @ @ + @ @ FXMXMXFX8X1X,Xm.B.V.V.C.H.,XS.,XD.C.A.A.D.H.M.Z.D.,XH.V.M.M.M.V.V.+ + + @ HXwXM.C.2X8X8X9X2XF.m 7 < , % > , , < 7 7 7 r t t h h MXHXHXLXJXDXxXqXeXyX0X3X4X1X<X1X4XqXeXwX9X9X4XbXq.q.r.w.w.XX.Xf.e.e.w.w.w.q.q.q.0.q.q.,.=.=.-.*.*.$.$.-.=.&.$.+.R / E P G G G K _ _ I Y ",
"          O       .   .   .   . . . . . . . . . + . + + X + X + @ @ X @ DXmXmXMX<X<X3XC.N.V.V.C.M.V.Z.S.C.V.H.S.M.V.A.A.C.V.A.D.K.Z.M.m.M.@ @ @ + @ + @ KXwXM.M.J.4X4XL.L.L.A u < $ > > > < , < 4 5 nXAXMXFXLXMXqX0XeXeX0X<X,X,X,X2X8X0X1X,X1X1X4XwX0X4X4X4XyX0.=.,.q.k.b.T.e.q.q.q.q.q.q.=.=.-.*.-.-.-.*.*.&.$.O.$.&.*.$.+.[ R E I G P F H F _ >.] V ",
"      O c x       . .     . . . . . . . . . . . . X . + + X + + @ nXAXAXmX#X<X<XM.N.B.V.V.N.A.L.D.D.C.V.A.K.Z.N.M.M.V.V.V.M.V.V.M.m.@ @ @ @ @ @ @ + @ @ KXqXN.V.V.F.F.V.F.L.Q B 9 1 $ > > HXDXAXJXKXMX0X1X8XqX4XJ.J.J.G.J.#X,X,X4X0XeX0X2X,X<X2X<X4X1X1X1X4X0X*.-.=.=.=.8.8.q.r.q.q.=.=.=.*.@.;.@.*.*.*.O.@.;.$.+.+.+.$.$.O._ T P G H D V V s V H k V ",
"      o ....        .   . . .   . . . . . . + + . + . o + X AXHXDXmX#X9X#XM.M.M.V.V.N.V.V.V.A.D.1X7X,XV.Z.K.K.<X9XS.M.V.M.M.M.@ @ @ @ @ X @ @ @ + @ @ X JXwXF.H.F.N.V.F.J.L.Q Q F.,XnXJXJXnX4X4X0XqX<XJ.J.V.N.F.H.<X3X<X,X,X,X,X<X8X0X<X<X4X4X4X4X1X2X4X0X4X4X&.*.*.*.-.=.=.-.k.8.=.-.k.=.;.;.o.o.O.*.O.+.O.$.+.' +.+.X.' ' R E U H H V V s M p p p p ",
"        x ;           . .   . . . . . . . + . . + . . nXMXmXnX7X7X<XV.M.B.M.C.S.D.A.V.N.C.A.C.C.,X3X<XV.M.Z.,X8XqX,XV.M.= @ + @ @ = + X @ @ @ @ @ X @ @ AX4XV.A.J.J.N.J.L.F.G.4X4XJ.,XwX0X<XN.N.M.M.N.2X2XJ.J.,X<X8X4X<X,X1X2X,X,X2X,XG.,X4X4X4X2X<X0XyXqX1XrX$.;.;.;.*.&.&.*.*.-.=.*.-.*.;.o.o.X.} X.X.X.X.+.$.+.X.' X.' ' / I I D k M s i p p y e e ",
"        O ; O O           . . . . . . . . + . . mXKXKXmX3X<X#XB.V.V.A.D.V.V.K.7X9XC.M.N.C.S.Z.Z.S.1X<XC.C.A.Z.S.H.= @ @ @ $ @ @ @ @ @ + + @ @ @ @ @ # * DX3XM.V.1X<XN.F.G.F.L.2XuX8XF.M.M.M.F.G.V.V.H.<X,XJ.J.,X,X<XJ.J.J.<X4X2X,XG.,X<X,X<X2X<XH.1XeXrX4XwXmXo.%.O.O.o.$.O.O.O.*.*.$.*.*.O.X.X.X.] R X.X._ #.>.+./ / / T / E I G H M i s s p e p e p ",
"        o x           . .   .     . . . . xX3X7XmXnXqX<XN.m.M.Z.S.Z.#X#XC.A.#X<XS.M.M.V.C.Z.K.<XG.A.A.V.C.C.* = @ @ $ @ @ @ @ @ @ @ @ @ + + @ + @ % : * DX7XM.V.H.H.N.N.V.F.L.2X8X9XF.F.G.G.H.2XF.F.G.V.V.F.F.V.F.#X#X#X<X<X<X<XG.,X4X4X4X4X2XH.H.,X3X3X/ } _ X.X.+.+.[ +.+.+.+.$.$.%.$.O.+./ } R ' R } R R X.O.[ E E / E I I G G D s i p p p p p w e ",
"              O     .     . . . . . . . . KXmXAXnX#Xm.m.M.V.C.Z.Z.C.#X,XZ.D.D.D.C.m.N.V.V.V.V.G.C.N.M.- * $ @ = $ @ @ @ @ @ @ @ @ @ @ @ @ + # % - = = # JXwXM.M.B.N.F.J.G.G.F.F.L.L.L.L.0X0XL.F.N.F.N.M.N.,X4X1XF.J.,X4X4X4X,X,XJ.#X2X<X,X,XH.K K U Y R Y Y R R ] ' X./ / X.X.X.+.O.[ } X.X.R R R R R / R R E T Y T I I P G H H D k h i p a a p p p a ",
"                      .   . . . . . . . . AXKXnX#XM.V.B.V.A.,XC.M.V.Z.C.Z.<XK.,XG.m.M.N.M.N.M.N.- * 3 = @ $ @ @ = % @ = $ @ @ @ @ @ @ @ # # = : - % @ = JXwXM.M.M.N.H.<X2XJ.M.N.F.F.2X2XwXwXL.M.N.N.N.M.,XyXMXbX4XC.J.#X,XJ.J.J.C.J.P P G F J F K U Y Y K U U Y Y R R R / ] R Y [ / ] Y / R E E T E / T R T E R _ E I I G H V V k s i i e a p p M a y ",
"                      .   . . . .   . . . AXFX7XC.,X#XN.N.A.<XA.B.N.m.M.C.D.,XD.V.M.M.M.M.* - * * * @ = @ $ = # * 6 = @ @ = $ @ @ @ @ @ @ * * * = # * * DX7XM.Z.C.V.D.9X<XC.M.M.F.L.L.L.L.2XF.M.M.M.n.M.H.qXyXyX4XN.V.N.V.H H P P P P P U | #.L J J K K K K K U U E E E E E E E / ] E W U E U I I I E T T E T U / ' _ P V V V p i i i e r a e p p M M ",
"                        .   .   . . . . . X FX7XC.#XS.B.B.C.S.C.B.M.M.N.V.V.A.C.n.M.# * * * 3 = $ = $ @ @ @ $ @ $ @ @ @ @ @ @ @ @ @ $ = * * = @ @ * * # JXwXV.D.A.M.Z.<XD.V.M.M.C.D.1XL.F.F.F.M.N.M.M.M.M.V.J.Z.r p M m m N H P V A P I | Y.IX| k G W F F G G F G W I W U E U U E E U P I U I W I I P I U U K P I 3.1.H V V p p e i r i p r a y m M A ",
"                    O o . .   . . . X o @ o KXwXN.V.N.B.M.N.N.N.M.M.V.2X3XC.M.@ @ * * * * * @ * @ $ = $ $ $ @ @ @ @ @ $ @ @ @ @ @ @ * * * @ @ * * * = @ HX0XC.S.C.M.M.M.F.M.M.M.V.2X9X2XL.F.F.F.F.M.M.$ > > , < w w a y m M C M B A H ' ;.b..X/ D G G F F H H F H F G G P G W P U U G H F W P H G G H G G P I G I #.:.H V M p e w p p p p p w p V P ( ",
"                    ..6.8     . O o + # @ # HX7XM.C.S.C.Z.#XA.N.M.C.#XrX@ X # # * * * $ @ @ @ @ $ @ $ @ @ = @ $ $ @ @ @ $ @ @ * % * * * @ # * * * = + @ DX8XV.C.V.Z.S.S.F.M.M.M.Z.L.C.F.J.F.! Q Z B 0 > , > , 7 4 < < 9 p M i m M V H ~ R X.E V D G G C h H D D F H H H G P H H W G G F F F G H H C P H H G P H V V V V V p p a w e i e p M V C ~ ) ) ",
"                    5.oXj . o : : o # o o # # wXB.C.3X3XS.#XS.B.m.D.X + @ * % - = v z @ @ @ % @ $ # = $ = @ = $ # @ @ * @ @ * * * * = @ @ * * * @ @ @ @ KXnX,XM.V.C.S.S.F.n.M.M.N.< < 0 q m ] [ ( Z B q 1 < < 7 , , < a w w w y M m m m I I.$.m M D H i h h C k D k k D D D D H H G F D k H G H H D H V H V H H V V V V s p e a e a p p p V P ^ ) ) ^ ",
"                    X # o # o @ o # o # # . O mX1XB.3X0XA.Z.N.N.Z.7X= # # * = # @ z v @ @ @ $ # @ # $ @ $ $ @ @ = $ @ @ @ * * * * * @ * * * * @ @ @ X @ HXKXnX,XM.M.m.m.+ + + > > > > < < q A ! Z Q Q B y w 7 < 1 1 < 7 w a < w a a m m V I H M M D C i u i i i i i i s h s C k C P H M M D H D N M N i M M V V V s p M V p a p p p p V H P / l.l.~ ~ ",
"                  O o O o @ # o O # X X O   . AX3XM.<X4X#XZ.B.C.D.#X; = * # @ + @ @ + $ # # @ @ @ $ $ @ @ $ $ @ # @ @ $ * * * * @ @ * * * * @ @ @ @ @ @ DXAXJX@ + + @ @ @ @ $ = % > > > , 0 q u P Z Q Q A N y < 1 > , 7 5 < < < a a m m M m m m M C y p u t t t i e i i i i i M k D D M u i D M M i M p p i M M M i y p p p s l s V V A T ) l.) ) ~ P ",
"            O O o g : o o : o # X . . . . . . . 3XM.C.A.A.C.m.B.Z.A.C.= O o + @ # + @ @ @ # # = $ = @ $ $ = $ = @ $ * * * * * @ * * * * $ @ @ @ @ @ @ @ @ @ @ @ @ + @ @ + @ @ $ @ @ > > > , 4 W #.! B Q ( ^ N q 7 < 4 a < 1 > < 9 a 9 a m a m m i i w y r y r w r r r e e r u p i C k M u i k M m M u p y p w i p p a e p s c 7.U._ P ~ ) l.) ^ T I V ",
"        O O o o o z ; o o o X . .   .   . . . . nXD.n.n.B.A.Z.V.M.M.m.X X + + + + @ @ @ @ # # # @ $ $ @ $ $ @ @ = * * * * @ @ * * * * = @ $ @ @ @ @ @ @ @ @ @ @ @ @ @ @ X @ + . @ + @ > > > < S S S m A Z ^ ! A m u u 4 > > 1 > 1 1 9 0 q q y y i r a w 0 w w w a w w a 7 w e r i i i p w r i p p y y a w a y w p p w 7 p i ` kXsX-.) ) ^ ^ T P P P V ",
"        O : o o o o o o     . . .   . . . . . . DX7XM.C.D.7X#XC.M.M.M.+ @ @ + + + @ @ @ @ @ # # @ # # * @ * * = * 6 * * @ * * - - * $ # @ @ @ @ @ @ @ @ @ @ @ @ @ @ @ @ @ @ @ @ @ @ + + $ > > < < < 0 N A A Q Q ^ Z C u 0 > 1 1 , l r 4 9 9 < 4 w w 9 < < w a a 7 a 7 7 < 7 w a 7 i p w a w p p a y y a a a a y i p y a p H I e.s.9.) ^ ~ P P V V V V ",
"    O   O o o o o O         . . . .   . . . . . o 7XC.C.D.7X3XZ.M.V.M.<XX + + + @ @ @ # # $ # @ @ * % % * % 3 - 3 * $ @ * * * * = % # @ @ @ # = $ @ @ @ @ @ # $ # # # @ @ @ + + @ + + @ @ $ > > 1 < 0 u m S A A ~ ( ^ Z m 0 9 1 7  .L 3 1 1 , < 7 < < < < < 0 a a 2 < 9 7 < , 2 < r w w < 7 p e a 9 a w 9 9 a a p p V V N ~ ' 9.l.) ~ P B B M M V p V ",
"  O o o o : @ o O O O   .   . X + . . .   . . @ o mX#Xn.Z.#XZ.V.M.V.V.M.@ @ # & $ @ @ % $ = $ $ $ @ * * * 3 6 3 * = $ * * * * # # @ # % $ @ @ @ @ @ @ @ @ @ + @ @ $ # # @ @ @ @ X @ @ @ @ @ @ > 1 , 5 w q ! B m A Q Q ! Q A m q a 5 < 1 1 1 , 4 , , 1 < a w 0 9 9 9 9 < < < < 1 < w r w 9 < a e a a a < < 9 a w m M P ~ ^ ) l.) ~ ~ P V M m a p a M p ",
"O o o o O . . . . . . . X . . + + + O O o # # @ # AX3XM.A.Z.M.n.m.A.A.m.# # # # % $ @ $ % % % % % % % 3 6 6 3 * % % * 3 * * $ # # # # % @ # @ @ @ @ @ @ $ @ # @ $ * @ @ @ @ @ @ @ + + @ @ @ @ @ $ 4 4 < 0 q q q N C A Z Q Q Q Q B m q < 1 > > 4 < > > < 0 N u 0 9 9 1 < < 1 < , , 7 w w 1 a a y a a a a w y m N A ~ ) ) ) ( ) ) T P V M m a a e p p 8 ",
"o o O O     . . . & . . + . . + & + & * g - # & o X 7XV.V.A.A.V.m.A.#XV.,X& $ $ # # $ $ $ # % % % * 3 6 6 4 3 % 3 * 6 * * # @ $ # # @ % @ * # @ $ @ @ * , = # # $ @ * @ # @ @ @ + @ @ @ @ X @ @ * 3 , 1 > < < r u q q m B A Q Q Q Q A B m 0 q r 4 1 < 1 0 C m 9 9 a < 1 1 , 1 1 , 4 7 w a a a p m y q y N N A ~ ^ ) ) ( ~ P P E I V M p a p e a 2 d e ",
". .       O z z . & . & & & + $ % % % 6 8 @ + X + + mX3Xn.A.7X#XV.Z.1XS.M.$ $ # # # $ $ # $ $ $ * 6 6 3 3 * 3 4 6 6 3 = @ @ % @ $ # @ # $ # % @ @ @ $ $ % = $ # @ % % # # @ @ @ @ @ X + @ @ @ @ * * @ % 1 > < 5 q 9 q q m m B B Q Q Q Q Q A A N m q 9 9 a y m q y a 9 < < < < 1 < r r r a m m C P B A Z ~ ( ( ( ~ ~ ~ ~ P N V I P V V M M p e 2 2 d d ",
"O     O   O 6.>.+ . & & & & % % * , - & # . + + & # FX7Xn.S.7X#XV.M.A.C.M.# $ $ $ $ @ # $ $ % 3 6 3 3 , % , 3 8 5 3 % * % % @ = @ $ % % % % % % % % % % $ $ $ # @ % $ @ # # # # @ @ @ @ @ @ @ = % = # + $ , 4 4 9 1 1 < < q q m m B B Q Q Q ( ! Q A A B B B A B B B m m y y y y q N M N N A Z ~ ^ ( ( ( ^ ~ ~ Z A A V P V V p s V V V a a e d 2 a 2 d ",
"      O     z g + . & & % 6 3 * * , $ & & & & & + & & 4XM.J.,XZ.M.m.n.n.n.<X$ # $ & @ % % * * * 3 * % % , 6 6 5 3 , % % $ $ @ $ $ $ % % % % % % % % $ $ $ $ $ = # % # # @ # @ @ @ X @ @ @ @ = * # # @ @ @ = 6 4 1 1 > > < < < 0 q q m B A A Z Z Q Q ! Q Q Q ( ( ^ Q Q Z Z Z Z Z Z ~ ~ ( ^ ( ( ( ( ^ ~ P Z P A B m M M M M p e p s V d e 8 e d 2 2 2 8 ",
"O = g o   X . . . . & % 8 L l $ $ % $ 1 1 $ & & & . $ nX,XB.B.m.M.B.M.C.C.N.# # # # $ % 6 3 3 3 % % * 3 3 5 6 % % > 5 $ $ = % $ # % % % , % $ % % % % , , $ $ @ # % % @ % @ @ # # @ @ @ @ # # - # @ # # @ = : # $ > > > > > < 1 < 0 0 q q m C A B A A Z Q Q ( ( ( ( ( ( Q ( ( ~ Q ( ( ~ ^ P Q Z Z Z A B B B m y y q a y i p a w e d f e f f e e e e 2 ",
"  g  .g . . . . O # % % - 6 , # & & 1 $ > > < < & & & AX4XM.N.N.B.M.B.#XH.M.+ & # # % 3 3 * % % % , 3 3 6 3 % , % 5 3 > , = % % % % % , % , $ = % 3 % , , % $ @ % j $ @ # # $ # # @ @ @ @ : * # x z x # = * - # @ @ + % > > > > > < 1 < 0 0 u q q q m m B B Q Q ~ Q ~ Z Z Z Z A A A Z A A N N N C C m m m B s p r w a w e e 6 6 2 d d 8 e 2 f e 8 7 2 ",
"  . = .     X o * : # & + + & & & & $ $ & > , 1 $ & $ $ 3XM.Z.S.M.m.Z.0X3XM.#X+ # * 3 - , % % $ , 3 6 7 % , % % , % 3 3 , , , % % % % % , * $ * % = $ % % $ $ = % 5 % # @ # @ @ # # # # % * # @ c 7.b # % * # @ @ + # @ $ $ > > > > < 1 < 5 0 9 < 0 0 q q m B B B A B B B B B B m M N V N y 0 y N i 0 w a ` U.3.K w 7 7 8 8 6 6 2 f d f e 2 e 2 7 2 2 ",
".       O O : o @ O . + & & + & & & & & & $ $ % $ & $ $ nX#XC.C.M.M.S.7X3XC.M.# * 3 * # % $ # * 3 3 3 3 , % , , > 3 % 3 5 % * % % % * % , % % $ $ = % % % % % $ $ $ # % $ @ # % # @ @ # * * # @ xXAXz = - - @ O @ @ @ @ # @ @ # $ > > > > 4 4 > 1 < < < 9 0 m m B m y q q y a q a y i u w 9 < 9 u w 4 9 a 2.IXgX#.7 - - 6 8 8 2 2 2 f d 7 2 8 8 2 2 2 ",
"    X o o = o X   . . + . + . + & . . & $ & % < > $ $ $ mX#Xn.M.m.C.#X#X#XA.M.* * * % # + $ * 6 - 3 % % , % % , % 3 > 3 , , , , 3 , % % % % % $ $ $ % % % % $ $ $ $ $ $ # % % # $ # # * * = KXnXbXDX+ * * # @ # X @ @ @ + + @ @ @ @ @ $ , 4 3 , > 1 1 < 1 9 q q q q q a q a a a a a e w w < < < 0 w w a a l 1.u.L 6 - 2 6 8 6 6 2 2 2 8 e 2 2 2 8 2 e ",
"O o o o o o   O . . . . . . + & & & . + $ & 5 S 4 & & & & 3XB.m.B.C.Z.Z.#XS.C.<X# , 3 $ $ - * % % $ $ % , , , , , % % , $ , , % , 3 > % % * % $ $ % % > % % $ % % % % % % % % @ # # # * nXFXAXJXAXAXKX* : @ @ @ @ @ @ # + + + @ @ @ @ @ = * $ $ $ 1 , $ 1 2 a q q a a a a 9 a 9 9 a a 7 4 < , < 4 6 6 6 6 6 l d 8 6 2 2 2 f 8 8 2 2 2 e d 2 6 2 2 7 7 ",
"o o o . . .   o . . . . . . + & & + + + & & $ < > $ & $ & AX<XB.S.xX0XxXA.3X#XV.# $ $ * 3 - - # $ @ $ $ % % , , , 3 > , , % , % % % % % $ % % = % % 3 % % 3 % % , , , , % % % $ $ * AXKXFXwX1XiX3X3XMX- % @ @ @ @ @ @ @ @ @ @ @ @ @ @ @ * * @ @ & # & & & > < a < 9 a a 9 9 a e 2 1 6 7 6 # $ & * 6 6 % 6 6 , , % * 6 2 2 6 8 8 8 2 2 8 8 7 : 2 2 2 8 ",
"# .   . .   . X . . . . . . . . . + + + + & & & & & & & & AXHXDXSXAXFXFXS.7X3XB.+ $ * * * * $ @ @ @ $ $ $ % % 3 > , , , % % $ * % % = $ = % % % % , , , , % , % 3 , , , % % % bXFXHXMXrX3XC.M.V.V.V.,XnX@ @ @ @ @ @ # @ + & @ @ # # # # * : @ @ @ @ @ @ @ $ 4 5 , * 6 2 2 < c 4.c # - - - % % : % - 6 * 2 - , % - - 2 2 2 6 8 6 2 2 2 2 8 - * 2 2 e 2 ",
"O O   . . . . . . . . . . . . + # & + + + + + + & DXAXAXKXnX7X4X3X3XnXKXA.A.Z.B.,X* * * $ $ @ $ $ @ @ % % $ % % , % % $ $ % % % = $ $ $ $ $ $ % , % % % % , % 3 , 3 3 3 % AXKXmXwX8X1XV.M.V.A.D.S.C.V.#X@ # @ @ @ @ @ # # # @ @ # # # # * # @ @ @ @ @ @ @ * 4 7 < < < 7 2 6 2.Y.1.& 6 8 6 % % % % 6 6 * % % 2 - % , % * 2 2 7 8 8 2 2 2 6 8 2 2 2 2 e ",
"  O . .   . + . . . . . . + O + # $ + . . KXLXLXKXnX3X3XwX#XN.C.C.B.#XeXB.B.Z.C.M.* % @ @ $ @ $ % $ # # @ $ $ $ > $ $ $ $ % # $ % $ $ $ $ = * % % % , % % % , % 3 3 , bXJXnXiX1XA.C.M.M.n.C.D.D.A.V.V.M.= @ @ @ @ @ # # # & # # # # @ # - # @ @ @ + @ @ # % < 6 2 2 7 4 4 6 l  .L , - 6 - - % % - ; 8 * % , % * * % , 2 2 2 8 6 2 ; 2 2 2 e f 7 e e d ",
". .   . . # $   . . . O . . + + + nXHXDXJXnX0X0XqX#Xn.B.B.B.Z.S.A.B.m.m.#X#XqX3XN.* # @ @ # @ # # % @ @ + + # $ = % % % % % % * $ $ = @ $ $ $ 3 3 % % % % 3 3 , , mXKXbXqX,XM.V.,XD.A.F.M.V.A.S.V.S.<XZ.K.@ @ @ # @ # @ # # & # # # @ - - # @ @ # + @ @ # % 6 7 4 4 6 2 4 < 3 8  .z - 8 6 2 % % * h h 6 % % * 3 % % % * - 2 2 e 8 8 2 2 2 8 d d d d s ",
"      .   . X . . .   . . HXAXcXFXAX0X3XwX#XB.B.n.n.Z.7XwX<XA.N.B.C.#X#XB.3XrX<XM.,X% @ & @ & + # # $ + + @ + # $ $ * $ $ # # @ # $ @ * $ @ % , , , % % % % DXFXFXnXqX<XV.V.M.V.A.A.K.D.M.M.V.V.C.<X1XC.9X@ @ @ @ @ # @ # # % # # # # - - @ @ @ @ @ @ @ # % 2 7 7 8 7 7 7 < 6 7  .] % 6 6 - % % * 5 8 - * % 6 3 2 & % * 2 2 2 8 8 8 2 2 6 e d d d s s ",
". . .   O .   . . nXAXCXJXnX#XA.3X1XC.A.B.n.#X#XB.B.1XxXtX3XA.n.B.Z.#X3XC.Z.S.C.M.m.$ @ @ $ # & $ $ % % $ @ @ @ @ $ # % % $ $ $ @ $ @ @ $ * = % % % % % bXHXnX9X7X<XM.#XqX<XM.C.A.A.<XH.M.M.M.V.D.#XC.<XmX5 @ @ @ @ # # @ @ @ @ # & % % * # @ # @ @ @ # % < 7 e e e w 7 7 7 6 6 , > 6 6 6 2 % % % % 8 - % - 2 % * 2 * % 2 2 7 8 d e 7 : 8 e l l l s l ",
". O   .   JXDXAXKXnX4X1XwX#Xn.n.n.m.#X0XS.n.Z.A.B.B.#X0X<XZ.B.n.C.C.C.C.B.M.m.Z.C.n.# @ & $ & $ $ % > % $ & + @ @ % % % % * # @ = $ $ $ = $ % % % = FXJXmXrX<XV.V.n.V.7XxX#XV.C.A.K.1XA.M.V.C.C.S.S.M.x 6.v @ @ = @ # @ # @ @ # # # - - * @ # # @ @ @ % * 4 7 7 r 7 7 w w e t 6 6 , 6 6 6 6 * % % % 6 8 2 - % 2 * * 2 2 2 2 7 e d d e 2 2 e l l l F J ",
". wXFXmXMXnX7X7XqX,Xm.B.M.n.n.n.m.m.#X#XC.n.n.B.B.B.Z.S.A.B.B.n.N.#XS.B.#XnXB.A.,XC.#X8 % & % $ , , , , % $ # # @ @ $ $ $ $ @ @ # # @ @ $ $ % % GXKXmXiX9XN.A.#X,XB.V.A.A.V.V.V.A.A.A.M.Z.D.A.V.M.* @ * v g @ @ @ @ @ @ # = % # # # % - # # @ # # @ # $ % 3 7 7 w w w 7 r e i 7 < 6 6 7 8 6 * % * % 6 6 6 % - % % 2 * % 2 2 2 7 t p d d d d s l F F J ",
"nXSXNX#X1X#XB.B.B.n.B.#XC.m.m.V.A.C.B.B.n.B.B.Z.A.B.B.Z.,X3XS.n.N.S.S.n.qXKXC.B.<X,XM.2.$ $ $ $ , > % > % % # $ # # $ # $ % # $ # $ # $ $ wXnXKXnXqX#XC.B.Z.<X7XD.V.M.M.B.B.Z.<X7X9XZ.m.A.<XC.* # @ @ @ @ $ @ $ # # # # # @ $ @ & # - - # # # @ @ @ # # % % , 4 7 w e w 7 e e e 7 2 2 8 6 6 - % * % 2 6 2 2 2 % 2 : 2 - 2 2 2 6 7 8 t i e p d l J I J ",
"KXKXqXn.n.B.#X#XB.B.Z.S.C.m.B.#X3X#XB.n.B.B.#X#XA.B.B.S.4XwX#XB.M.M.n.#X#XS.B.B.#X#XN.] + # $ $ > % % % > , % $ # # % $ # $ # # # @ # rXrXmXnXqX,XM.M.A.K.S.S.D.A.V.M.M.V.V.D.8XwX#XV.m.C.- * * % # % @ @ = @ @ # # # @ % # # @ # # - % @ # @ @ @ @ # % # * % 4 7 w e e e w 8 e e 2 6 6 8 6 % % * % - 6 - * * - 2 - 2 2 6 4 7 e 7 e 8 t e e p s J J J ",
"KXbX#Xn.B.#XwX#Xn.B.B.B.n.B.S.#X3X#XB.B.N.1XqX3XB.n.B.Z.A.A.B.: & 7XN.,X#Xm.C.#XD.C.N.,X# & & $ $ # $ $ $ $ $ # @ $ # % % % $ # # $ # yXnXnXD.M.M.V.S.9X9XC.M.Z.9XD.Z.M.V.C.S.9XG.N.= = - - - # @ % @ $ @ $ @ @ @ @ @ @ @ # $ $ # % - % # # # # $ @ @ @ % % * 4 7 w e r 7 a p e r 7 7 8 8 8 6 % % 2 * 6 6 - 2 2 2 2 2 6 7 7 w e t i i d p e d d d F l ",
"bXD.B.#X#X#X#XA.B.n.C.S.C.C.#X#X#XB.n.B.C.1X4X#XB.B.B.  o # # O + nX#XC.Z.M.#X3X3X1XC.n.& # $ $ $ $ $ & $ # & # & $ $ $ $ $ $ # # @ # KXKXqXM.M.M.V.Z.Z.V.N.N.C.K.#X#XC.B.C.Z.B.% = $ * 6 - * # # @ $ = @ @ @ z z * o z 1. .* # # - - # $ & # # @ @ $ @ % % % , < 7 w e 2.3.J e w 7 7 t 8 7 6 2 2 2 - 6 6 2 - 7 6 6 7 8 7 e e t e i i s s s d s s s s ",
"A.V.#X0X3XV.A.S.n.Z.3XpX3XC.A.S.B.B.B.m.n.B.N.O   . o o o O + + X mX<XM.C.C.S.#X3X<XC.n.+ $ % $ # # & # @ # & & # @ # & @ # # $ # # @ KXnX,XM.V.N.N.M.M.m.N.C.Z.Z.D.S.V.M.M.$ 3 % % % 6 6 - % # % @ $ = # @ # b ..- = z Y.>.5 # % 6 - % & # # # @ # & # # % % * 3 4 4 8 6.Y.| w 7 7 7 7 8 8 7 6 2 2 - 2 8 6 - 6 7 e e t e t s i s i s s l s s J H F H ",
"#XB.S.3X#XA.S.V.n.A.0XwX#XC.m.B.n.B.M.  .     . . : o # O . . . + X <Xn.Z.A.V.D.<XS.C.n.1X# # + & + @ + + + @ # # & # + @ # @ + # & @ AX3XM.C.A.S.D.Z.m.N.S.9XwX9XA.V.M.* % % % % 3 - 6 6 - # % # % % # # $ $ - g $ $ * g 7 $ * % % % % # # # & @ # # # # % % , 3 , , 6 h l r 6 < 7 7 r t t r 6 2 2 2 6 8 6 2 2 7 d t e e e t s s k s H H H s V J J J ",
"nX#XB.C.S.S.C.n.n.B.Z.C.B.B.M.o O O       . . O o o O O .   . . . + nXD.B.S.D.A.A.A.V.n.B.+ # @ & + + + + @ & $ @ # + # # + @ @ @ # + MX<XM.C.S.9X8X9XB.V.D.9X7X<X3 * * * % % % % % 6 6 - % # # % % % # # # * @ @ @ @ @ # # # # % % % % # # # $ $ + $ # # # $ % $ 3 4 4 < < 7 4 4 e 7 t i 8 t 7 6 7 2 6 7 7 2 2 2 8 e t e t d s s s l H J V H H J J I ",
"nXNX#Xm.B.C.m.n.n.n.n.O o # o .     O O O   o o o O     .     . . . DX7Xn.S.#XV.B.C.V.M.m.& & & @ + + + @ . + + + $ + + + @ @ @ + @ # JXwXM.V.C.D.7X<XN.N.Z.Z.= - 3 * $ 3 % % , * 6 6 6 - % % % % % # % = % $ @ $ $ $ = # # % % # % % # # # # # $ $ $ # % % # % 5 C j 3 4 4 7 4 4 4 7 e k t t 8 e 6 e 7 8 8 2 2 4 6 e e e e e s s H H J J J J F H J J ",
"nXKXnX#Xn.n.n.. . O . o : o O     .     o # o o O             O O X X 7XB.V.C.m.C.S.Z.M.n.,X& # @ @ + + + O + + # & @ @ + @ @ + @ @ @ KXqXM.C.D.D.D.S.N.C.= $ * 6 * * % % * * * * 6 6 6 % % % % % % % % % % % % % # % % # & % & $ * % # @ # @ @ # $ # % , % $ % 5 C j 4 4 4 4 4 0 4 7 t k i i 8 8 7 7 7 8 8 7 4 7 7 e e t e e s V V V J J J J J J J J ",
". HXHX. + + . . O o # o o . O . . . o 8 ; = o                 c 3.z . mX#Xn.m.B.C.S.C.m.m.n.@ + + + + & + + + & + # @ @ @ @ @ @ @ @ @ KXqXM.A.<XD.A.Z.Z.K.= = - * % @ % % % % 3 6 8 6 3 , % % % * % % % * % % % % * % * % % % & # @ % % * # $ * # # % % 3 3 3 h 8 % , > 4 4 4 4 7 4 7 r i d t 7 7 e r 7 i t 7 7 7 e e t s d s V V V J J T T T T I J H ",
". . + & + + . + : # # O . . . . . X  .UXb.j                   x b - . DX7Xn.Z.Z.m.m.M.m.n.n.@ # - z f & + + X + @ @ o # @ & ;  .8 o tXKXqXM.C.,X9X#XC.K.3Xg * 3 * @ % $ % % * % 6 5 6 3 % * * $ % % % % , % - % % % % % % * & * % % @ # @ = $ % % % % 3 3 , 6 v j , , 3 4 0 w r w 4 w r t k i l l h e e i i e 7 e e p s s V V s J V J J J T ' T I I H ",
"X . + $ & + o # # o . . . . O . X o j b.k.g         O                 . 7XM.C.C.B.C.C.M.m.m.,X: c 7.6.6 + + X + + + & @ o & * KXmXmXmXKXqXM.A.D.#XD.B.Z.H.h - = @ @ # # $ % % 3 6 6 6 % 3 % % $ % % - % % % % % , % % % * % % & % # % % @ $ @ * % % % % % < 5 < , 3 , , 4 7 w w 0 4 7 8 i i k k H s e e t l k r w w e p V F D F J J J J T T ' ' ' _ I ",
". + + + + : # o O . . .   O O O # # = 5 5 =         o ;               . AX#Xn.S.#XS.#XS.C.Z.M... .2.#.% + + O & @ @ @ @ HXAXAXmX3X1X1XKXwXV.#X7XS.A.V.V.M.8 * # # @ # $ # % * 6 ; 6 * * $ * $ % % * * % % # % % % % % % % % % # # % # # # @ * # % * * $ , 3 u < , 4 , 3 4 4 w w 7 4 0 w i k i i i i p i l #.] w e a e p V V V J J I I I I T T ' ' ' T ",
". . . o # * o O . . .     O o o o X O O             n 7.z       .       DX4Xn.#X3X#X#XZ.S.1XS.6. .+ X & + + + O X nXmXAXnX1X1X,XN.M.M.JXwXC.wX8XV.V.K.H.V.6.z @ # @ @ @ % # * - 6 * % % * % % * % % % % , 6 , % % , % * % % % % # % % % % # @ % # @ $ $ 3 5 0 5 4 4 3 3 , < w 7 7 4 < 7 i h M i i i M i s L W t a a a d V V V V J I I T I T T ' ' ' ' ",
". & * : # o . . . O     . o # : .       .           b Y.z           O     0XN.B.Z.S.Z.M.A.<X3XD.8 # + + + + DXHXJXnX1X1X,XM.M.M.M.D.,XLX8XV.D.S.M.M.K.,XV.5.z $ # # @ @ @ # - - - # $ % $ * % = % % % , % 3 , % % * , % % % % % % % % % % % # # # @ $ * , 3 4 4 4 3 4 4 4 5 0 w 4 w 7 9 t u i i r i i k i C C t e e e p V V V J J I T T T T T ' ' ' ' ",
"o # # # O . O . . O   O o # o # X O       O                             X mX#Xn.m.B.m.n.M.C.,X,X. + + nXHXHXnXwX0X#XM.n.M.A.S.M.V.<X7XDX7Xn.V.M.M.V.C.Z.V.@ @ $ = @ @ @ @ * * * * % @ # $ $ % % % % % % , * 3 % % % * * % , % % % % % % % % % % % % $ = , < 4 4 4 3 4 4 4 w 7 0 7 4 w w t i i i r e i h i M h i p p p a p M V V J J ' ' T ` T ' ' ' T ",
"o : + . . . . . .   o : o O . # @ O       .   .   O                     . AX1Xm.m.m.n.m.m.M.B.C.B.V.M.#X4X7X#Xm.B.B.N.N.C.S.Z.N.M.V.A.HXwXM.V.C.Z.C.C.A.V.@ + @ @ @ + @ = * * * @ % # % # % % # % % # * , 3 3 3 % % 3 % % % % * 3 % % % % % % % % $ $ % 5 4 4 4 4 4 3 < 4 4 7 7 7 0 y r i h k i y u i M i i V i i i u M i M M H H P I _ T T T ' ' T I ",
"o + . . . X .   O o o o O . .   .         O                                 3XM.V.S.V.M.A.S.B.M.C.S.Z.n.n.B.B.C.A.N.N.N.Z.Z.N.N.B.m.M.LXwXM.C.#X7X<X<X3XC.X @ @ X @ @ @ * * * * $ @ @ % @ # # % % % % % % * % * * 3 * $ , % % % % % 5 5 * , % % $ = % % , 3 4 3 3 , > 3 < 4 4 < w w u u M Y >.E w u u u i i k i i u u i i M H H K T T T T T _ _ ' / / ",
"O . . . .     o o : O .     O     .       .       O               O         MX#XB.>X3XB.#X7X#XN.B.Z.C.M.Z.#X#XA.Z.B.m.n.B.B.N.N.M.V.A.AX3Xn.V.1XeX7X7X7XZ.@ @ + @ X @ @ * - * # @ $ = @ @ = % # xXtX% % % , % , , 3 % 3 % , 3 % % % , 3 , , % % % % = % * , 3 4 , , 3 3 7 4 4 0 w u u u M ] >.^ y y t u M i i i p u u i M V V D K @.;.T ` :.' _ ' I T ",
". . .   .   o X o o .   .     O .   . o                         # X     O   AX3XB.3X3XB.S.<X3X<XB.m.B.#X7XwX3XS.N.B.B.B.B.m.M.B.Z.1X,XAX1Xm.M.S.#X#XwX7XC.+ @ @ @ @ @ = * - # $ # $ $ @ % mXDXmXmXxXMX% % % * * $ % , 5 3 % 3 % , % % % % % 3 % % % $ % $ 3 > 3 , * , > < 0 4 4 0 y u M H C W H M i u i M i C k i e u u s M M V G X.] I :.oXc.' T I T ",
". & . . ; v = o   .   .       .     O                   O                     3XB.C.C.C.C.C.3X3XA.n.N.4XtXqX#XZ.B.M.M.M.M.B.M.N.A.D.C.AX3XM.C.S.A.D.wX#XV.o + + @ + # # # - o & + @ MXJXJXnX7X1XwXmXKX# % % % % , % $ 3 % 3 % % % * % , % % % % % % % % % * % , 3 , , , 3 4 7 4 0 0 y u N H P H M M M M M i s C i i u r M M i V V H I E @.,.$.T T T I ",
". & . o  .UX] .   . O   .     O O                             O               nX#XB.B.#X#XC.#X3XZ.n.C.#X3X3XZ.n.m.B.Z.Z.B.M.M.M.M.M.# AX3XM.N.S.Z.Z.A.V.M.X X + @ O * % ; : # nXJXJXnXwXwX,XV.V.Z.1XiX$ % % % * % * * 3 % % 3 % % , % * 3 % % $ = $ $ * * % * 3 3 3 5 r 3 4 4 4 7 w q u N H P U G N H N u i M C M r w y V i s V Y _ G I _ I H G I I I ",
"  . X # ; z = . . O .   .         X   O O                     o =             GX3XB.#X3X#XZ.B.Z.B.B.Z.S.A.A.Z.B.C.Z.Z.Z.N.n.n.& + @ + LX0Xn.B.N.B.m.m.m.M.X X + + @ * x JXLXHXnX8XwX#XV.V.M.C.1X<XV.M.,X% % % % % % % % % % % = % % $ $ = % $ = = $ = $ $ $ * $ 3 3 j h 7 < 4 < 4 4 0 u y C C C H M M D C M i V C w w w w u u l #.>.P I I I I G F J I ",
".   O o o . . .       O           = = O       .   O   O O     .                 0XB.#X3X3XA.m.m.B.C.N.C.N.N.Z.Z.C.C.M.m.+ + & + + @ + KXwXm.B.B.m.m.M.V.M.X + X X nXHXHXnX4X7X<Xn.M.V.A.A.C.S.1X1XC.n.M.% % % @ % % % % % % % $ = = $ % ] z $ = $ $ $ $ @ % % * % 3 < < 4 5 w w 0 0 0 0 y u u i k N M M s C M M s r w w w p r p D l V V V V J H H J J ",
". . x n c : .     .     O     O   X O     . O     .   .                         nX#XB.#X#XZ.Z.B.C.S.N.n.m.M.N.B.m.O + . + + + & + + . KXqXM.B.m.N.N.N.Z.N.. B.B.M.#X0X0X,Xm.C.A.M.m.V.C.A.D.Z.V.V.V.N.M.% % % $ $ $ % # # # % # % # % * ] z @ $ @ @ $ @ @ % # % * 3 , 4 4 7 0 7 w 0 0 w 0 u u u i u C M M D V k D p 9 w r u w w r u i V V H V D D J J ",
"  O b UXU.g . O .   .       .   . .         . .     .     O                     KXqXB.Z.C.Z.A.C.N.J.N.n.n.n.+ . . . + + + . O + + + + KXwXB.C.S.<X<XS.Z.C.B.C.A.C.M.B.m.m.V.,X<XA.M.M.A.3XwX3XC.M.A.A.N.3X% % % $ * % # # % # % @ % @ # = % @ $ = * @ @ @ # # % % % , 4 4 4 w 0 w 0 0 0 w u u M i i ] W M M C D C u w w w y w w w w w r i s s s s s s ",
"O   ; 2.] = . . O .   . .               .   .   . O O                             nX#Xn.B.C.C.B.B.n.n.. . . . . . . + O . + + + . + + KXqXM.A.3X3X0X3XC.N.B.B.A.C.B.C.S.A.C.A.S.Z.M.M.D.8XqX8XC.C.,XG.M.4X% # # $ % % # % # % # @ # # @ % @ $ @ $ @ @ * $ # % % % % 3 , 4 4 0 4 0 0 5 0 a w u u u C ] W u u i M M i 0 7 7 0 w w 7 7 a w w i s p d d s ",
". .     . X . . O . .       . O O O       O X   .   O     O O                     KXnX#Xm.m.n.n.      $ & . . . . . . . . . . . + + . KXeXM.C.#X3X3X<XN.M.N.B.B.M.C.#X#XS.N.V.A.S.V.M.S.<X1XH.V.C.A.M.<XnX# # $ @ # # % # % # % # @ @ @ $ = @ @ # @ # # @ % # % % % % < 4 4 5 0 0 4 < 0 9 5 r u u m u y r y q u i u w w 7 4 0 w a 4 < < 7 w w w a e d ",
"    O . . . X @ . X . : z z     X   X . O - - . . .   .                           AXJXmX7X            O   .     . . . . . . + . . + + KXqXn.N.#X3X#XA.m.N.#X3X3XA.V.S.,XC.M.B.,X0X<XV.Z.3X#XM.M.V.M.<X$ % # % & # # # & & % & % # # # # @ @ @ @ @ @ $ # # # $ @ $ % % 4 4 0 4 0 w 0 4 4 < 7 u t i y y y y 0 0 7 r i 0 w 0 7 < 7 < < , , 2 2 2 2 7 2 2 ",
". . O .   . . X . .   o z g   .         O = # . .   .   O                                                   . .   .   . . . . . O + : KXqXm.B.C.C.C.B.m.N.#X0XxX3Xm.D.3XZ.m.N.#X0X<XB.V.D.A.n.n.# z h $ # $ % $ & # & # # # # # # # # & @ @ @ @ @ @ # = # % # $ % % % 5 r w 0 0 0 w 0 0 4 0 r u u u q w w 7 < < 7 t 7 < 7 0 4 4 4 , , , , % % , 2 2 2 ",
". . . . . . . O . .   X X .   X   O ; ; . X O . O O .     . O                                                 . . .   . + O . + . # # KXqXm.B.#X<XN.n.n.N.S.#XwX#Xn.A.S.C.,X7X,XZ.V.M.m.m.# # $ # # # # $ $ $ & # & & # # # # $ # # @ @ @ @ @ @ @ @ # @ @ # % % # % % 6 4 4 4 4 7 9 4 0 0 7 t u u r 0 0 < 4 3 < 7 r w 4 4 4 < < 4 2 8 2 % % 2 2 2 2 2 ",
"  O   . O . . . . . . X .   .     ;  .] X . . O c 6.z . O O       O                               O               . . . . O o O O # : KXwXB.Z.<X#XN.M.n.S.7X3X#XS.m.M.B.Z.#X7XS.m.m.= @ + @ @ @ # % % @ # # # # @ # # # # # + & - g = @ # @ @ @ @ @ @ # # @ # # % % # % , , 0 w 0 w 0 4 4 0 t t i r 0 4 4 4 < 4 3 7 7 < 3 < , , 8 ..7.l # % % * % a 7 ",
". . . . O . . . . . . . . O   . . o g g . . X o 3.IXU.= X .                                     O O                 . . . c 7.z # # o KXqXN.,XA.B.B.A.Z.Z.4XwX0XG.M.n.N.C.N.N.-  .#.% + # & # # $ % % $ $ # # & # & # % # # o & % - # & # # @ @ + @ @ # # # # % % % # , % , 4 7 0 w w t 5 w t u i t w a < < 7 < % 7 7 < 4 , , , r 2.U.l & , 2 , , e p ",
".   . . . . . . . O O . . . o   . . . . O .   x Y.KXXX= . . . X . O .   .     .                                           b IX#.o # O JXqXN.#XZ.n.C.#XA.B.S.0X3XZ.n.M.n.. . X + . + # & $ $ $ & % 7 , # # # # # % % % & & # # # + + o o & # + # @ & # # # # # # $ > , % , , , 4 w a u u a 7 r i i r a e w w 7 < 4 7 8 , 2 , , < < 1 % 2 2 2 , , % 7 a ",
"O . O   . O . .   .   . O . . . X X # + . . . O z 1.h + . .   . . O . O                                                     g ; o O O nX<XB.A.C.B.S.1XZ.B.G.,XN.m.+ + . + + . + X + & $ & # & $ $ $ # % $ # $ $ & % & # % # + + & + # @ + @ + # # # & o + # & l h * % , , % < 7 w w u 0 w w e i i t 7 s e w 7 7 < 6 7 3 # , , , < , % 1 % > 2 2 2 % 2 ",
"  .     . .   . . . O .   X j { 5 . + + O + X + . . X # . X . O   X g * O O                                 O             O O = + O . AX1XB.N.N.n.Z.,XA.B.N.O + . . . + . . X + X + & & & $ $ $ # $ $ $ % & # $ # # % # # & # # # & @ + @ + # # + + # # # # % 6 - % % , , < 4 0 w w r u w 0 7 t 7 t c c c l w 7 7 7 7 7 , % % % % , 2 % 2 % & , % 2 % ",
"O .   .   . . . O .   . . X S { r . + . + + O + + O $ # + . .     O = = O                               O                 o O o . O . KXnX#Xn.M.B.B.C.: # o . . . . + . . . X + . + @ + & # # $ # & & % $ & % # # # # # # @ + @ & # + # # @ o & + & # # # & & # & , % , , , < < 7 w w w w 7 7 t e f 3.OXY. .7 4 7 2 7 7 , % % # # , % % % % % , & * 2 ",
"      . . . O   .   . .   . $ % @ O . . + O + . O & & + O . . .                     O                                     o o .     . AXHXnX0XH.  O # # # + . . + . . + + . + . + + X @ + # & # # # # & & $ # & & # & + + + + @ # # # # # + + + # & # & & # # # % $ $ % % , , 2 < w < w w 7 r 7 6 x 6.ZXdX#.7 2 < 2 7 8 % $ $ & $ # % > % * & & & & & ",
"            . . . . .   . o .   . . O . + . O + O + + + # & . . O                                                       O o o       O rXwX. . . O O # o : O + + . + . O . + O + + . X + + + @ & & $ $ & # # # & & & & # + + + @ # # + + @ & + # @ o + # # # % & & % % $ $ % , , < 0 0 4 9 7 r 7 8 e ` 3.1.L 2 , , 2 7 6 % $ % & & $ $ % % & & # & & & ",
"        .   . O   o . .       O . X . O . O . . + + O + , # O .       O                                 O           O O o o O             . . . . # # : . . . . . . . . . . + . X X + . . X + & & $ # & & & # & o + + + o + & & # # @ @ + & o + + + & & & # & # % & & % > $ , % > < 4 4 < 9 w t 8 8 2 2 - 8 2 % % % 2 2 % $ & & & & $ & & % % # + & & ",
"    O     O O . O . O O . . .   . . . . O . . O . . + . & & + O .                                     = 2.Y.2.o       O O O     O         . . O o # o # . . . . O + + . + . . + . X X X X + # + + + & & + # @ # # + + # + & # # & # & & O + + + # # & + # o & & & % & % % % % $ , 2 < < < < 2 7 7 7 2 * 2 % 2 % > 2 2 2 * & & # & % & % & & & & + + & "
};
